!!!!SEGMENT: pl-cz--iii-668--001-007_scigalski-franciszek--missa-pleni-sunt.krn
!!!cenid: 18xx:1102
!!!COM: Ścigalski, Franciszek
!!!COM-rismid: pe30002948
!!!CDT: 1782/01/29-1846/09/27
!!!CNT: Polish
!!!OPR: Missa
!!!OTL: Pleni sunt
!!!OMV: 007
!!!PDT: 1827
!!!AGN: Sacred; Mass
!!!SMS-siglum: PL-CZ
!!!SMS-shelfmark: III-668
!!!SMS-shelfwork: 001-007 M
!!!SMS-variant:
!!!SMS-altvar:
!!!NIFC-rismid: 300001313
!!!URL-scan: http://repozytorium.nifc.pl/skany/pl-cz-nut--iii-668
!!!ONB-nifc: UWAGA: części Mszy: Kyrie, Gloria, Credo, Et incarnatus, Et resurrexit, Sanctus, Pleni sunt, Benedictus, Agnus Dei, Dona nobis
!!!key: B-
**kern	**fba	**kern	**dynam	**kern	**dynam	**kern	**dynam	**kern	**dynam	**kern	**text	**dynam	**kern	**text	**dynam	**kern	**text	**dynam	**kern	**text	**dynam	**kern	**dynam	**kern	**dynam	**kern	**dynam	**kern	**dynam	**kern	**dynam	**kern	**dynam	**kern	**dynam	**kern	**dynam
*	*	*	*	*group4	*	*group4	*	*group4	*	*group3	*	*	*group3	*	*	*group3	*	*	*group3	*	*	*	*	*group2	*	*group2	*	*group1	*	*group1	*	*group1	*	*group1	*	*group1	*
*part16	*part16	*part16	*part16	*part15	*part15	*part14	*part14	*part13	*part13	*part12	*part12	*part12	*part11	*part11	*part11	*part10	*part10	*part10	*part9	*part9	*part9	*part8	*part8	*part7	*part7	*part6	*part6	*part5	*part5	*part4	*part4	*part3	*part3	*part2	*part2	*part1	*part1
*staff17	*	*staff16	*	*staff15	*	*staff14	*	*staff13	*	*staff12	*staff12	*	*staff11	*staff11	*	*staff10	*staff10	*	*staff9	*staff9	*	*staff8	*	*staff7	*	*staff6	*	*staff5	*	*staff4	*	*staff3	*	*staff2	*	*staff1	*
*I"Organo et Violoncello	*	*	*	*I"Alto Viola.	*	*I"Violino 2do	*	*I"Violino 1mo	*	*I"Basſo	*	*	*I"Tenore	*	*	*I"Alto	*	*	*I"Canto	*	*	*I"Tympani in B.F.	*	*I"Clarino 2do in B.	*	*I"Clarino 1mo in B.	*	*I"Fagotto 2do	*	*I"Fagotto 1mo	*	*I"Clarinetto 2do in B	*	*I"Clarinetto 1mo in B.	*	*I"Flauto	*
*I'organo et vcl	*	*	*	*I'a-viola	*	*I'vl 2	*	*I'vl 1	*	*I'B	*	*	*I'T	*	*	*I'A	*	*	*I'S	*	*	*I'timp	*	*I'clno 2 in B|b	*	*I'clno 1 in B|b	*	*I'fag 2	*	*I'fag 1	*	*I'cl 2 in B|b	*	*I'cl 1 in B|b	*	*I'fl	*
*Iorgan&cello	*	*	*	*Iviola	*	*Ivioln	*	*Ivioln	*	*Ibass	*	*	*Itenor	*	*	*Ialto	*	*	*Isoprn	*	*	*Itimpa	*	*Itromp	*	*Itromp	*	*Ifagot	*	*Ifagot	*	*Iclara	*	*Iclara	*	*Iflt	*
*ICklav&str	*	*	*	*ICstr	*	*ICstr	*	*ICstr	*	*ICvox	*	*	*ICvox	*	*	*ICvox	*	*	*ICvox	*	*	*ICidio	*	*ICbras	*	*ICbras	*	*ICww	*	*ICww	*	*ICww	*	*ICww	*	*ICww	*
*IGcont	*	*	*	*	*	*	*	*	*	*IGcoro	*	*	*IGcoro	*	*	*IGcoro	*	*	*IGcoro	*	*	*	*	*	*	*	*	*	*	*	*	*	*	*	*	*	*
*clefF4	*	*clefF4	*	*clefC3	*	*clefG2	*	*clefG2	*	*clefF4	*	*	*clefC4	*	*	*clefC3	*	*	*clefC1	*	*	*clefF4	*	*clefG2	*	*clefG2	*	*clefF4	*	*clefF4	*	*clefG2	*	*clefG2	*	*clefG2	*
*	*	*	*	*	*	*	*	*	*	*	*	*	*	*	*	*	*	*	*	*	*	*ITrd1c2	*	*ITrd1c2	*	*ITrd1c2	*	*	*	*	*	*ITrd1c2	*	*ITrd1c2	*	*	*
*k[b-e-]	*	*k[b-e-]	*	*k[b-e-]	*	*k[b-e-]	*	*k[b-e-]	*	*k[b-e-]	*	*	*k[b-e-]	*	*	*k[b-e-]	*	*	*k[e-b-]	*	*	*k[b-e-]	*	*k[b-e-]	*	*k[b-e-]	*	*k[b-e-]	*	*k[b-e-]	*	*k[b-e-]	*	*k[b-e-]	*	*k[b-e-]	*
*E-:	*	*E-:	*	*E-:	*	*E-:	*	*E-:	*	*E-:	*	*	*E-:	*	*	*E-:	*	*	*E-:	*	*	*E-:	*	*E-:	*	*E-:	*	*E-:	*	*E-:	*	*E-:	*	*E-:	*	*E-:	*
*M3/4	*	*M3/4	*	*M3/4	*	*M3/4	*	*M3/4	*	*M3/4	*	*	*M3/4	*	*	*M3/4	*	*	*M3/4	*	*	*M3/4	*	*M3/4	*	*M3/4	*	*M3/4	*	*M3/4	*	*M3/4	*	*M3/4	*	*M3/4	*
=1	=1	=1	=1	=1	=1	=1	=1	=1	=1	=1	=1	=1	=1	=1	=1	=1	=1	=1	=1	=1	=1	=1	=1	=1	=1	=1	=1	=1	=1	=1	=1	=1	=1	=1	=1	=1	=1
!	!	!LO:TX:a:t=1.	!	!LO:TX:a:t=1.	!	!LO:TX:a:t=2.	!	!LO:TX:a:t=1.	!	!	!	!	!	!	!	!	!	!	!	!	!	!LO:TX:a:Bi:t=Allegretto	!	!LO:TX:a:Bi:t=Allegretto	!	!LO:TX:a:Bi:t=Allegretto	!	!	!	!	!	!	!	!	!	!	!
!	!	!LO:TX:a:Bi:t=Allegretto	!	!LO:TX:a:Bi:t=Allegretto	!	!LO:TX:a:Bi:t=Allegretto	!	!LO:TX:a:Bi:t=Allegretto quasi Allegro	!	!LO:TX:a:Bi:t=Allegretto	!	!LO:DY:b:rj	!LO:TX:a:Bi:t=Allegretto	!	!LO:DY:rj:b	!LO:TX:a:Bi:t=Allegro:color=grey	!	!LO:DY:rj:b	!LO:TX:a:Bi:t=Allegretto	!	!LO:DY:b:rj	!LO:TX:a:t=1.	!	!LO:TX:a:t=1.	!	!LO:TX:a:t=1.	!	!LO:TX:a:Bi:t=Allegretto	!LO:DY:rj:t=f&colon;	!LO:TX:a:Bi:t=Allegretto	!LO:DY:rj	!	!LO:DY:rj	!LO:TX:a:Bi:t=Allegretto	!LO:DY:rj:t=f.	!LO:TX:a:Bi:t=Allegretto	!
2.r	.	2.ryy	.	2.r	.	1.r	.	2.r	.	4F\	Ple-	f	4f\	Ple-	f	4f\	Ple-	f	4ff\	Ple-	f	2.r	.	2.r	.	2.r	.	4F\	f	4F\	f	4f/	f	4ff\	f	4fff\	f
.	.	.	.	.	.	.	.	.	.	4F\	-ni	.	4f\	-ni	.	4f\	-ni	.	4ff\	-ni	.	.	.	.	.	.	.	4F\	.	4F\	.	4f/	.	4ff\	.	4fff\	.
.	.	.	.	.	.	.	.	.	.	4F\	sunt	.	4f\	sunt	.	4f\	sunt	.	4ff\	sunt	.	.	.	.	.	.	.	4F\	.	4F\	.	4f/	.	4ff\	.	4fff\	.
=2	=2	=2	=2	=2	=2	=2	=2	=2	=2	=2	=2	=2	=2	=2	=2	=2	=2	=2	=2	=2	=2	=2	=2	=2	=2	=2	=2	=2	=2	=2	=2	=2	=2	=2	=2	=2	=2
*	*	*	*	*	*	*	*	*tremolo	*	*	*	*	*	*	*	*	*	*	*	*	*	*	*	*	*	*	*	*	*	*	*	*	*	*	*	*	*
!	!	!	!LO:DY:rj:b=2	!	!LO:DY:rj:t=f.	!	!	!	!LO:DY:rj	!	!	!	!	!	!	!	!	!	!	!	!	!	!LO:DY:rj	!	!LO:DY:rj	!	!LO:DY:rj	!LO:TX:t=P:problem:mixed beam	!	!LO:TX:t=P:problem:mixed beam	!	!	!	!	!	!	!
8F\L	1	2.ryy	f	8f\L	f	.	.	16f/LL	f	4F\	coe-	.	4f\	coe-	.	4f\	coe-	.	4ff\	coe-	.	4FF/	f	4F/	f	4f/	f	8FF/L	.	8FF/L	.	4f/	.	4ff\	.	4fff\	.
.	.	.	.	.	.	.	.	16f/	.	.	.	.	.	.	.	.	.	.	.	.	.	.	.	.	.	.	.	.	.	.	.	.	.	.	.	.	.
8F\	1	.	.	8f\J	.	.	.	16f/	.	.	.	.	.	.	.	.	.	.	.	.	.	.	.	.	.	.	.	8F\J	.	8F\J	.	.	.	.	.	.	.
.	.	.	.	.	.	.	.	16f/JJ	.	.	.	.	.	.	.	.	.	.	.	.	.	.	.	.	.	.	.	.	.	.	.	.	.	.	.	.	.
*	*	*	*	*	*	*	*	*	*	*	*	*	*	*	*	*	*	*	*	*	*	*	*	*	*	*	*	*2\right	*	*	*	*	*	*	*	*	*
*	*	*	*	*tremolo	*	*	*	*	*	*	*	*	*	*	*	*	*	*	*	*	*	*	*	*	*	*	*	*tremolo	*	*tremolo	*	*	*	*	*	*	*
!	!	!	!	!LO:TX:a:t=....	!	!	!	!	!	!	!	!	!	!	!	!	!	!	!	!	!	!	!	!	!	!	!	!	!	!	!	!	!	!	!	!	!
8F\	3	.	.	8f'\L	.	.	.	16a/LL	.	4F\	-li	.	4F/	-li	.	4f\	-li	.	4f/	-li	.	4FF/	.	4F/	.	4f/	.	8F\L	.	8F\L	.	4f/	.	4f/	.	4ff\	.
.	.	.	.	.	.	.	.	16a/	.	.	.	.	.	.	.	.	.	.	.	.	.	.	.	.	.	.	.	.	.	.	.	.	.	.	.	.	.
8F\J	.	.	.	8f'\	.	.	.	16a/	.	.	.	.	.	.	.	.	.	.	.	.	.	.	.	.	.	.	.	8F\	.	8F\	.	.	.	.	.	.	.
.	.	.	.	.	.	.	.	16a/JJ	.	.	.	.	.	.	.	.	.	.	.	.	.	.	.	.	.	.	.	.	.	.	.	.	.	.	.	.	.
8F\L	5	.	.	8f'\	.	.	.	16cc\LL	.	4r	.	.	4r	.	.	4r	.	.	4r	.	.	4FF/	.	4F/	.	4f/	.	8F\	.	8F\	.	4r	.	4r	.	4r	.
.	.	.	.	.	.	.	.	16cc\	.	.	.	.	.	.	.	.	.	.	.	.	.	.	.	.	.	.	.	.	.	.	.	.	.	.	.	.	.
8F\J	.	.	.	8f'\J	.	.	.	16cc\	.	.	.	.	.	.	.	.	.	.	.	.	.	.	.	.	.	.	.	8F\J	.	8F\J	.	.	.	.	.	.	.
.	.	.	.	.	.	.	.	16cc\JJ	.	.	.	.	.	.	.	.	.	.	.	.	.	.	.	.	.	.	.	.	.	.	.	.	.	.	.	.	.
*	*	*	*	*	*	*	*	*Xtremolo	*	*	*	*	*	*	*	*	*	*	*	*	*	*	*	*	*	*	*	*Xtremolo	*	*Xtremolo	*	*	*	*	*	*	*
=3	=3	=3	=3	=3	=3	=3	=3	=3	=3	=3	=3	=3	=3	=3	=3	=3	=3	=3	=3	=3	=3	=3	=3	=3	=3	=3	=3	=3	=3	=3	=3	=3	=3	=3	=3	=3	=3
*2\right	*	*	*	*	*	*tremolo	*	*	*	*	*	*	*	*	*	*	*	*	*	*	*	*	*	*	*	*	*	*	*	*	*	*	*	*	*	*	*
!	!	!	!	!	!	!t	!LO:DY:rj	!	!	!	!	!	!	!	!	!	!	!	!	!	!	!	!	!	!	!	!	!LO:TX:t=P:problem:mixed beam	!	!LO:TX:t=P:problem:mixed beam	!	!	!	!	!	!	!
8F\L	7	2.ryy	.	8f\L	.	16f/LL	f	8.ee-\L	.	4F\	coe-	.	4f\	coe-	.	4g\	coe-	.	4ee-\	coe-	.	4FF/	.	4F/	.	4f/	.	8FF/L	.	8FF/L	.	4cc\	.	4ee-\	.	4eee-\	.
.	.	.	.	.	.	16f/	.	.	.	.	.	.	.	.	.	.	.	.	.	.	.	.	.	.	.	.	.	.	.	.	.	.	.	.	.	.	.
8F\J	.	.	.	8f\	.	16f/	.	.	.	.	.	.	.	.	.	.	.	.	.	.	.	.	.	.	.	.	.	8F\J	.	8F\J	.	.	.	.	.	.	.
.	.	.	.	.	.	16f/JJ	.	16cc\Jk	.	.	.	.	.	.	.	.	.	.	.	.	.	.	.	.	.	.	.	.	.	.	.	.	.	.	.	.	.
*tremolo	*	*	*	*	*	*	*	*	*	*	*	*	*	*	*	*	*	*	*	*	*	*tremolo	*	*tremolo	*	*tremolo	*	*tremolo	*	*tremolo	*	*	*	*	*	*	*
!	!	!	!	!	!	!	!	!	!	!	!	!	!	!	!	!	!	!	!	!	!	!LO:TX:b:t=....	!	!	!	!	!	!	!	!	!	!	!	!	!	!	!
8F\L	.	.	.	8f\	.	16a/LL	.	4a\	.	4F\	-li	.	4f\	-li	.	4a\	-li	.	4ee-\	-li	.	8FF|/L	.	8F/L	.	8f/L	.	8F\L	.	8F\L	.	4cc\	.	4ee-\	.	4eee-\	.
.	.	.	.	.	.	16a/	.	.	.	.	.	.	.	.	.	.	.	.	.	.	.	.	.	.	.	.	.	.	.	.	.	.	.	.	.	.	.
8F\	.	.	.	8f\	.	16a/	.	.	.	.	.	.	.	.	.	.	.	.	.	.	.	8FF|/	.	8F/	.	8f/	.	8F\	.	8F\	.	.	.	.	.	.	.
.	.	.	.	.	.	16a/JJ	.	.	.	.	.	.	.	.	.	.	.	.	.	.	.	.	.	.	.	.	.	.	.	.	.	.	.	.	.	.	.
8F\	.	.	.	8f\	.	16cc\LL	.	4r	.	4F\	et	.	4f\	et	.	4cc\	et	.	4ee-\	et	.	8FF|/	.	8F/	.	8f/	.	8F\	.	8F\	.	4cc\	.	4ee-\	.	4eee-\	.
.	.	.	.	.	.	16cc\	.	.	.	.	.	.	.	.	.	.	.	.	.	.	.	.	.	.	.	.	.	.	.	.	.	.	.	.	.	.	.
8F\J	.	.	.	8f\J	.	16cc\	.	.	.	.	.	.	.	.	.	.	.	.	.	.	.	8FF|/J	.	8F/J	.	8f/J	.	8F\J	.	8F\J	.	.	.	.	.	.	.
.	.	.	.	.	.	16cc\JJ	.	.	.	.	.	.	.	.	.	.	.	.	.	.	.	.	.	.	.	.	.	.	.	.	.	.	.	.	.	.	.
*	*	*	*	*	*	*Xtremolo	*	*	*	*	*	*	*	*	*	*	*	*	*	*	*	*Xtremolo	*	*Xtremolo	*	*Xtremolo	*	*Xtremolo	*	*Xtremolo	*	*	*	*	*	*	*
=4	=4	=4	=4	=4	=4	=4	=4	=4	=4	=4	=4	=4	=4	=4	=4	=4	=4	=4	=4	=4	=4	=4	=4	=4	=4	=4	=4	=4	=4	=4	=4	=4	=4	=4	=4	=4	=4
*	*	*	*	*	*	*	*	*tremolo	*	*	*	*	*	*	*	*	*	*	*	*	*	*	*	*	*	*	*	*	*	*	*	*	*	*	*	*	*
!	!	!	!	!	!	!	!	!	!	!	!	!	!	!	!	!	!	!	!	!	!	!	!	!	!	!	!	!LO:TX:t=P:problem:mixed beam	!	!LO:TX:t=P:problem:mixed beam	!	!	!	!	!	!	!
8F\L	7_	2.ryy	.	8f\L	.	8.ee-\L	.	16a\LL	.	4F\	ter-	.	4f\	ter-	.	4cc\	ter-	.	4ee-\	ter-	.	4FF/	.	4F/	.	4f/	.	8FF/L	.	8FF/L	.	4cc\	.	4ee-\	.	4eee-\	.
.	.	.	.	.	.	.	.	16a\	.	.	.	.	.	.	.	.	.	.	.	.	.	.	.	.	.	.	.	.	.	.	.	.	.	.	.	.	.
8F\	.	.	.	8f\	.	.	.	16a\	.	.	.	.	.	.	.	.	.	.	.	.	.	.	.	.	.	.	.	8F\J	.	8F\J	.	.	.	.	.	.	.
.	.	.	.	.	.	16cc\Jk	.	16a\JJ	.	.	.	.	.	.	.	.	.	.	.	.	.	.	.	.	.	.	.	.	.	.	.	.	.	.	.	.	.
*	*	*	*	*	*	*	*	*	*	*	*	*	*	*	*	*	*	*	*	*	*	*	*	*	*	*	*	*tremolo	*	*tremolo	*	*	*	*	*	*	*
8F\	.	.	.	8f\	.	4a\	.	16cc\LL	.	4F\	-ra	.	4F/	-ra	.	4a\	-ra	.	4cc\	-ra	.	4FF/	.	4F/	.	4f/	.	8F\L	.	8F\L	.	4a\	.	4cc\	.	4ccc\	.
.	.	.	.	.	.	.	.	16cc\	.	.	.	.	.	.	.	.	.	.	.	.	.	.	.	.	.	.	.	.	.	.	.	.	.	.	.	.	.
8F\	.	.	.	8f\	.	.	.	16cc\	.	.	.	.	.	.	.	.	.	.	.	.	.	.	.	.	.	.	.	8F\	.	8F\	.	.	.	.	.	.	.
.	.	.	.	.	.	.	.	16cc\JJ	.	.	.	.	.	.	.	.	.	.	.	.	.	.	.	.	.	.	.	.	.	.	.	.	.	.	.	.	.
8F\	.	.	.	8f\	.	4r	.	16ee-\LL	.	4r	.	.	4r	.	.	4r	.	.	4r	.	.	4FF/	.	4F/	.	4f/	.	8F\	.	8F\	.	4r	.	4r	.	4r	.
.	.	.	.	.	.	.	.	16ee-\	.	.	.	.	.	.	.	.	.	.	.	.	.	.	.	.	.	.	.	.	.	.	.	.	.	.	.	.	.
8F\J	.	.	.	8f\J	.	.	.	16ee-\	.	.	.	.	.	.	.	.	.	.	.	.	.	.	.	.	.	.	.	8F\J	.	8F\J	.	.	.	.	.	.	.
.	.	.	.	.	.	.	.	16ee-\JJ	.	.	.	.	.	.	.	.	.	.	.	.	.	.	.	.	.	.	.	.	.	.	.	.	.	.	.	.	.
*	*	*	*	*	*	*	*	*Xtremolo	*	*	*	*	*	*	*	*	*	*	*	*	*	*	*	*	*	*	*	*Xtremolo	*	*Xtremolo	*	*	*	*	*	*	*
=5	=5	=5	=5	=5	=5	=5	=5	=5	=5	=5	=5	=5	=5	=5	=5	=5	=5	=5	=5	=5	=5	=5	=5	=5	=5	=5	=5	=5	=5	=5	=5	=5	=5	=5	=5	=5	=5
*	*	*	*	*	*	*tremolo	*	*	*	*	*	*	*	*	*	*	*	*	*	*	*	*	*	*	*	*	*	*	*	*	*	*	*	*	*	*	*
!	!	!	!	!	!	!	!	!	!	!	!	!	!	!	!	!	!	!	!	!	!	!	!	!	!	!	!	!LO:TX:t=P:problem:mixed beam	!	!LO:TX:t=P:problem:mixed beam	!	!	!	!	!	!	!
8F\L	.	2.ryy	.	8f\L	.	16a\LL	.	8.gg\L	.	4.F\	glo-	.	4.c\	glo-	.	4.a\	glo-	.	4.gg\	Glo-	.	4FF/	.	4F/	.	4f/	.	8FF/L	.	8FF/L	.	4ee-\	.	4gg\	.	4ggg\	.
.	.	.	.	.	.	16a\	.	.	.	.	.	.	.	.	.	.	.	.	.	.	.	.	.	.	.	.	.	.	.	.	.	.	.	.	.	.	.
8F\	.	.	.	8f\	.	16a\	.	.	.	.	.	.	.	.	.	.	.	.	.	.	.	.	.	.	.	.	.	8F\J	.	8F\J	.	.	.	.	.	.	.
.	.	.	.	.	.	16a\JJ	.	16ee-\Jk	.	.	.	.	.	.	.	.	.	.	.	.	.	.	.	.	.	.	.	.	.	.	.	.	.	.	.	.	.
*	*	*	*	*	*	*	*	*	*	*	*	*	*	*	*	*	*	*	*	*	*	*tremolo	*	*tremolo	*	*tremolo	*	*tremolo	*	*tremolo	*	*	*	*	*	*	*
!	!	!	!	!	!	!	!	!	!	!	!	!	!	!	!	!	!	!	!	!	!	!LO:TX:b:t=....	!	!	!	!	!	!	!	!	!	!	!	!	!	!	!
8F\	.	.	.	8f\	.	16cc\LL	.	4cc\	.	.	.	.	.	.	.	.	.	.	.	.	.	8FF|/L	.	8F/L	.	8f/L	.	8F\L	.	8F\L	.	4ee-\	.	4gg\	.	4ggg\	.
.	.	.	.	.	.	16cc\	.	.	.	.	.	.	.	.	.	.	.	.	.	.	.	.	.	.	.	.	.	.	.	.	.	.	.	.	.	.	.
8F\	.	.	.	8f\	.	16cc\	.	.	.	8F\	-ri-	.	8c\	-ri-	.	8a\	-ri-	.	8gg\	-ri-	.	8FF|/	.	8F/	.	8f/	.	8F\	.	8F\	.	.	.	.	.	.	.
.	.	.	.	.	.	16cc\JJ	.	.	.	.	.	.	.	.	.	.	.	.	.	.	.	.	.	.	.	.	.	.	.	.	.	.	.	.	.	.	.
8F\	.	.	.	8f\	.	16ee-\LL	.	4r	.	4F\	-a	.	4c\	-a	.	4a\	-a	.	4gg\	-a	.	8FF|/	.	8F/	.	8f/	.	8F\	.	8F\	.	4ee-\	.	4gg\	.	4ggg\	.
.	.	.	.	.	.	16ee-\	.	.	.	.	.	.	.	.	.	.	.	.	.	.	.	.	.	.	.	.	.	.	.	.	.	.	.	.	.	.	.
8F\J	.	.	.	8f\J	.	16ee-\	.	.	.	.	.	.	.	.	.	.	.	.	.	.	.	8FF|/J	.	8F/J	.	8f/J	.	8F\J	.	8F\J	.	.	.	.	.	.	.
.	.	.	.	.	.	16ee-\JJ	.	.	.	.	.	.	.	.	.	.	.	.	.	.	.	.	.	.	.	.	.	.	.	.	.	.	.	.	.	.	.
*Xtremolo	*	*	*	*	*	*	*	*	*	*	*	*	*	*	*	*	*	*	*	*	*	*Xtremolo	*	*Xtremolo	*	*Xtremolo	*	*	*	*	*	*	*	*	*	*	*
!	!	!	!	!	!	!	!	!	!	!LO:LB:g=original	!	!	!LO:LB:g=original	!	!	!LO:LB:g=original	!	!	!LO:LB:g=original	!	!	!	!	!	!	!	!	!	!	!	!	!	!	!	!	!	!
=6	=6	=6	=6	=6	=6	=6	=6	=6	=6	=6	=6	=6	=6	=6	=6	=6	=6	=6	=6	=6	=6	=6	=6	=6	=6	=6	=6	=6	=6	=6	=6	=6	=6	=6	=6	=6	=6
*	*	*	*	*	*	*	*	*tremolo	*	*	*	*	*	*	*	*	*	*	*	*	*	*	*	*	*	*	*	*	*	*	*	*	*	*	*	*	*
!	!	!	!	!	!	!	!	!	!	!	!	!	!	!	!	!	!	!	!	!	!	!LO:TX:a:t=1.	!	!LO:TX:a:t=1.	!	!LO:TX:a:t=1.	!	!	!	!	!	!	!	!	!	!	!
8F\L	9	2.ryy	.	8f\L	.	16ee-\LL	.	16gg\LL	.	4F\	glo-	.	4.c\	glo-	.	4g\	glo-	.	4gg\	Glo-	.	2.r	.	2.r	.	2.r	.	8F\L	.	8F\L	.	4ee-\	.	4gg\	.	4ggg\	.
.	.	.	.	.	.	16ee-\	.	16gg\	.	.	.	.	.	.	.	.	.	.	.	.	.	.	.	.	.	.	.	.	.	.	.	.	.	.	.	.	.
8F\	.	.	.	8f\	.	16ee-\	.	16gg\	.	.	.	.	.	.	.	.	.	.	.	.	.	.	.	.	.	.	.	8F\	.	8F\	.	.	.	.	.	.	.
.	.	.	.	.	.	16ee-\JJ	.	16gg\JJ	.	.	.	.	.	.	.	.	.	.	.	.	.	.	.	.	.	.	.	.	.	.	.	.	.	.	.	.	.
8F\	8	.	.	8f\	.	16dd\LL	.	16ff\LL	.	4F\	-ri-	.	.	.	.	4b-\	-ri-	.	4ff\	-ri-	.	.	.	.	.	.	.	8F\	.	8F\	.	4dd\	.	4ff\	.	4fff\	.
.	.	.	.	.	.	16dd\	.	16ff\	.	.	.	.	.	.	.	.	.	.	.	.	.	.	.	.	.	.	.	.	.	.	.	.	.	.	.	.	.
8F\J	.	.	.	8f\J	.	16dd\	.	16ff\	.	.	.	.	8c\	-ri-	.	.	.	.	.	.	.	.	.	.	.	.	.	8F\J	.	8F\J	.	.	.	.	.	.	.
.	.	.	.	.	.	16dd\JJ	.	16ff\JJ	.	.	.	.	.	.	.	.	.	.	.	.	.	.	.	.	.	.	.	.	.	.	.	.	.	.	.	.	.
*	*	*	*	*Xtremolo	*	*	*	*	*	*	*	*	*	*	*	*	*	*	*	*	*	*	*	*	*	*	*	*Xtremolo	*	*Xtremolo	*	*	*	*	*	*	*
8G\L	.	.	.	8g\L	.	16cc#X\LL	.	16een\LL	.	4G\	-a	.	4c\	-a	.	4cc\	-a	.	4een\	-a	.	.	.	.	.	.	.	8G\L	.	8G\L	.	4cc\	.	4eeX\	.	4eeen\	.
.	.	.	.	.	.	16cc#\	.	16ee\	.	.	.	.	.	.	.	.	.	.	.	.	.	.	.	.	.	.	.	.	.	.	.	.	.	.	.	.	.
8G\J	6\	.	.	8g\J	.	16cc#\	.	16ee\	.	.	.	.	.	.	.	.	.	.	.	.	.	.	.	.	.	.	.	8G\J	.	8G\J	.	.	.	.	.	.	.
.	.	.	.	.	.	16cc#\JJ	.	16ee\JJ	.	.	.	.	.	.	.	.	.	.	.	.	.	.	.	.	.	.	.	.	.	.	.	.	.	.	.	.	.
*	*	*	*	*	*	*Xtremolo	*	*Xtremolo	*	*	*	*	*	*	*	*	*	*	*	*	*	*	*	*	*	*	*	*	*	*	*	*	*	*	*	*	*
!	!	!	!	!	!	!LO:LB:g=original	!	!	!	!	!	!	!	!	!	!	!	!	!	!	!	!	!	!	!	!	!	!	!	!	!	!	!	!	!	!	!
=7	=7	=7	=7	=7	=7	=7	=7	=7	=7	=7	=7	=7	=7	=7	=7	=7	=7	=7	=7	=7	=7	=7	=7	=7	=7	=7	=7	=7	=7	=7	=7	=7	=7	=7	=7	=7	=7
*	*	*	*	*	*	*	*	*	*	*2\right	*	*	*2\right	*	*	*2\right	*	*	*2\right	*	*	*	*	*	*	*	*	*	*	*	*	*2\right	*	*	*	*2\right	*
8A\L	6	2.ryy	.	8a\L	.	8.dd\L	.	8.ff\L	.	2.A\	tu-	.	2.f\	tu-	.	2.cc\	tu-	.	2.ee-X\	tu-	.	4FF/	.	4f/	.	4cc\	.	8A\L	.	8A\L	.	2.cc\	.	2.ee-X\	.	2.eee-X\	.
8F\	5_	.	.	8f\	.	.	.	.	.	.	.	.	.	.	.	.	.	.	.	.	.	.	.	.	.	.	.	8F\J	.	8F\	.	.	.	.	.	.	.
.	.	.	.	.	.	16ccn\Jk	.	16ee-X\Jk	.	.	.	.	.	.	.	.	.	.	.	.	.	.	.	.	.	.	.	.	.	.	.	.	.	.	.	.	.
*	*	*	*	*	*	*	*	*	*	*	*	*	*	*	*	*	*	*	*	*	*	*tremolo	*	*tremolo	*	*tremolo	*	*	*	*	*	*	*	*	*	*	*
!	!	!	!	!	!	!	!	!	!	!	!	!	!	!	!	!	!	!	!	!	!	!LO:TX:b:t=....	!	!	!	!	!	!LO:TX:a:t=c:color=grey	!	!	!	!	!	!	!	!	!
8C\	.	.	.	8c\	.	(16bn\LL	.	(16dd\LL	.	.	.	.	.	.	.	.	.	.	.	.	.	8FF|/L	.	8f/L	.	8cc\L	.	8C/L	.	8C\	.	.	.	.	.	.	.
.	.	.	.	.	.	16cc\	.	16ee-\	.	.	.	.	.	.	.	.	.	.	.	.	.	.	.	.	.	.	.	.	.	.	.	.	.	.	.	.	.
!	!	!	!	!	!	!	!	!	!	!	!	!	!	!	!	!	!	!	!	!	!	!	!	!	!	!	!	!LO:TX:a:t=f:color=grey	!	!	!	!	!	!	!	!	!
8F\J	.	.	.	8f\J	.	16dd\	.	16ff\	.	.	.	.	.	.	.	.	.	.	.	.	.	8FF|/	.	8f/	.	8cc\	.	8F/	.	8F\J	.	.	.	.	.	.	.
.	.	.	.	.	.	16cc\JJ)	.	16ee-\JJ)	.	.	.	.	.	.	.	.	.	.	.	.	.	.	.	.	.	.	.	.	.	.	.	.	.	.	.	.	.
8AA/L	.	.	.	8A/L	.	(16b\LL	.	(16dd\LL	.	.	.	.	.	.	.	.	.	.	.	.	.	8FF|/	.	8f/	.	8cc\	.	8AA/	.	8AA/L	.	.	.	.	.	.	.
.	.	.	.	.	.	16cc\	.	16ee-\	.	.	.	.	.	.	.	.	.	.	.	.	.	.	.	.	.	.	.	.	.	.	.	.	.	.	.	.	.
8C/J	.	.	.	8c/J	.	16dd\	.	16ff\	.	.	.	.	.	.	.	.	.	.	.	.	.	8FF|/J	.	8f/J	.	8cc\J	.	8C/J	.	8C/J	.	.	.	.	.	.	.
.	.	.	.	.	.	16cc\JJ)	.	16ee-\JJ)	.	.	.	.	.	.	.	.	.	.	.	.	.	.	.	.	.	.	.	.	.	.	.	.	.	.	.	.	.
*	*	*	*	*	*	*	*	*	*	*	*	*	*	*	*	*	*	*	*	*	*	*Xtremolo	*	*Xtremolo	*	*Xtremolo	*	*	*	*	*	*	*	*	*	*	*
!LO:LB:g=original	!	!	!	!	!	!	!	!LO:LB:g=original	!	!	!	!	!	!	!	!	!	!	!	!	!	!	!	!	!	!	!	!	!	!	!	!	!	!	!	!	!
=8	=8	=8	=8	=8	=8	=8	=8	=8	=8	=8	=8	=8	=8	=8	=8	=8	=8	=8	=8	=8	=8	=8	=8	=8	=8	=8	=8	=8	=8	=8	=8	=8	=8	=8	=8	=8	=8
2FF/	x	2.ryy	.	2F/	.	2cc\	.	2ee-\	.	2A\	-a	.	2f\	-a	.	2cc\	-a	.	2ee-\	-a	.	2FF/	.	2f/	.	2cc\	.	2FF/	.	2FF/	.	4cc\	.	2ee-\	.	2eee-\	.
.	.	.	.	.	.	.	.	.	.	.	.	.	.	.	.	.	.	.	.	.	.	.	.	.	.	.	.	.	.	.	.	4r	.	.	.	.	.
4r	.	.	.	4r	.	4r	.	4r	.	4r	.	.	4r	.	.	4r	.	.	4r	.	.	4r	.	4r	.	4r	.	4r	.	4r	.	4r	.	4r	.	4r	.
!	!	!	!	!	!	!	!	!	!	!	!	!	!	!	!	!	!	!	!	!	!	!	!	!LO:PB:g=original	!	!	!	!LO:LB:g=original	!	!LO:LB:g=original	!	!LO:LB:g=original	!	!	!	!	!
=9	=9	=9	=9	=9	=9	=9	=9	=9	=9	=9	=9	=9	=9	=9	=9	=9	=9	=9	=9	=9	=9	=9	=9	=9	=9	=9	=9	=9	=9	=9	=9	=9	=9	=9	=9	=9	=9
8r	.	2.ryy	.	8r	.	4dd 4f/	.	8.bb-\L	.	4B-\	Ple-	.	4d\	Ple-	.	4b-\	Ple-	.	4ff\	Ple-	.	4r	.	4r	.	4r	.	8r	.	8r	.	4r	.	4r	.	4r	.
!	!	!	!	!	!	!	!	!	!	!	!	!	!	!	!	!	!	!	!	!	!	!	!	!	!	!	!	!LO:TX:t=P:problem:mixed beam	!	!LO:TX:t=P:problem:mixed beam	!	!	!	!	!	!	!
8BB-\L	8 3	.	.	8B-\L	.	.	.	.	.	.	.	.	.	.	.	.	.	.	.	.	.	.	.	.	.	.	.	8BB-\L	.	8BB-\L	.	.	.	.	.	.	.
.	.	.	.	.	.	.	.	16ff\Jk	.	.	.	.	.	.	.	.	.	.	.	.	.	.	.	.	.	.	.	.	.	.	.	.	.	.	.	.	.
8D\	.	.	.	8d\	.	4dd 4f/	.	4dd\	.	4B-\	-ni	.	4d\	-ni	.	4b-\	-ni	.	4ff\	-ni	.	4BB-/	.	4B-/	.	4b-\	.	8D\	.	8D\	.	4dd\	.	4ff\	.	4bb-\	.
!LO:N:vis=8	!	!	!	!	!	!	!	!	!	!	!	!	!	!	!	!	!	!	!	!	!	!	!	!	!	!	!	!	!	!	!	!	!	!	!	!	!
16F\	.	.	.	8f\J	.	.	.	.	.	.	.	.	.	.	.	.	.	.	.	.	.	.	.	.	.	.	.	8F\	.	8F\	.	.	.	.	.	.	.
!LO:N:vis=8	!	!	!	!	!	!	!	!	!	!	!	!	!	!	!	!	!	!	!	!	!	!	!	!	!	!	!	!	!	!	!	!	!	!	!	!	!
16B-\J	.	.	.	.	.	.	.	.	.	.	.	.	.	.	.	.	.	.	.	.	.	.	.	.	.	.	.	.	.	.	.	.	.	.	.	.	.
!LO:TX:t=P:problem:mixed beam	!	!	!	!LO:TX:t=P:problem:mixed beam	!	!	!	!	!	!	!	!	!	!	!	!	!	!	!	!	!	!	!	!	!	!	!	!	!	!	!	!	!	!	!	!	!
8B-\L	.	.	.	8b-\L	.	8r	.	8r	.	8r	.	.	8r	.	.	8r	.	.	8r	.	.	4BB-/	.	4B-/	.	4b-\	.	8B-\	.	8B-\	.	4dd\	.	4ff\	.	4bb-\	.
8BB-/J	.	.	.	8B-/J	.	8b- 8f/	.	8bb-\	.	8B-\	sunt	.	8d\	sunt	.	8b-\	sunt	.	8ff\	sunt	.	.	.	.	.	.	.	8BB-/J	.	8BB-/J	.	.	.	.	.	.	.
!	!	!	!	!LO:LB:g=original	!	!	!	!	!	!	!	!	!	!	!	!	!	!	!	!	!	!	!	!	!	!	!	!	!	!	!	!	!	!	!	!LO:LB:g=original	!
=10	=10	=10	=10	=10	=10	=10	=10	=10	=10	=10	=10	=10	=10	=10	=10	=10	=10	=10	=10	=10	=10	=10	=10	=10	=10	=10	=10	=10	=10	=10	=10	=10	=10	=10	=10	=10	=10
8r	.	2.ryy	.	8r	.	4b- 4g/	.	8.gg\L	.	4E-\	coe-	.	4e-\	coe-	.	4b-\	coe-	.	4gg\	coe-	.	4r	.	4r	.	4r	.	8r	.	8r	.	4r	.	4r	.	4r	.
8E-\L	8 3	.	.	8E-\L	.	.	.	.	.	.	.	.	.	.	.	.	.	.	.	.	.	.	.	.	.	.	.	8E-\L	.	8E-\L	.	.	.	.	.	.	.
.	.	.	.	.	.	.	.	16ee-\Jk	.	.	.	.	.	.	.	.	.	.	.	.	.	.	.	.	.	.	.	.	.	.	.	.	.	.	.	.	.
8G\	.	.	.	8G\	.	4b- 4g/	.	4b-\	.	4E-\	-li	.	4e-\	-li	.	4b-\	-li	.	4gg\	-li	.	4BB-/	.	4B-/	.	4b-\	.	8G\	.	8G\	.	4ee-\	.	4gg\	.	4ggg\	.
8B-\	.	.	.	8B-\J	.	.	.	.	.	.	.	.	.	.	.	.	.	.	.	.	.	.	.	.	.	.	.	8B-\	.	8B-\	.	.	.	.	.	.	.
!	!	!	!	!LO:TX:t=P:problem:mixed beam	!	!	!	!	!	!	!	!	!	!	!	!	!	!	!	!	!	!	!	!	!	!	!	!	!	!	!	!	!	!	!	!	!
8e-\	.	.	.	8e-\L	.	8r	.	8r	.	4r	.	.	4r	.	.	4r	.	.	4r	.	.	4BB-/	.	4B-/	.	4b-\	.	8e-\	.	8e-\	.	4ee-\	.	4gg\	.	4ggg\	.
8E-\J	.	.	.	8E-/J	.	8cc 8g/	.	8gg\	.	.	.	.	.	.	.	.	.	.	.	.	.	.	.	.	.	.	.	8E-\J	.	8E-\J	.	.	.	.	.	.	.
!	!	!	!	!	!	!	!	!	!	!	!	!	!	!	!	!	!	!	!	!	!	!	!	!	!	!	!	!	!	!	!	!	!	!LO:LB:g=original	!	!	!
=11	=11	=11	=11	=11	=11	=11	=11	=11	=11	=11	=11	=11	=11	=11	=11	=11	=11	=11	=11	=11	=11	=11	=11	=11	=11	=11	=11	=11	=11	=11	=11	=11	=11	=11	=11	=11	=11
8r	.	2.ryy	.	8r	.	4cc 4a/	.	8.ff\L	.	4F\	coe-	.	4f\	coe-	.	4a\	coe-	.	4cc\	coe-	.	4r	.	4r	.	4r	.	8r	.	8r	.	4r	.	4r	.	4r	.
8F\L	8 3	.	.	8F/L	.	.	.	.	.	.	.	.	.	.	.	.	.	.	.	.	.	.	.	.	.	.	.	8F\L	.	8F\L	.	.	.	.	.	.	.
.	.	.	.	.	.	.	.	16cc\Jk	.	.	.	.	.	.	.	.	.	.	.	.	.	.	.	.	.	.	.	.	.	.	.	.	.	.	.	.	.
8A\	.	.	.	8A/	.	4cc 4a/	.	4a/	.	4F\	-li	.	4f\	-li	.	4a\	-li	.	4cc\	-li	.	4FF/	.	4f/	.	4cc\	.	8A\	.	8A\	.	4a\	.	4ff\	.	4fff\	.
8c\	.	.	.	8c/J	.	.	.	.	.	.	.	.	.	.	.	.	.	.	.	.	.	.	.	.	.	.	.	8c\	.	8c\	.	.	.	.	.	.	.
!	!	!	!	!LO:TX:t=P:problem:mixed beam	!	!	!	!	!	!	!	!	!	!	!	!	!	!	!	!	!	!	!	!	!	!	!	!	!	!	!	!	!	!	!	!	!
8f\	.	.	.	8f\L	.	8r	.	8r	.	8r	.	.	8r	.	.	8r	.	.	8r	.	.	4FF/	.	4f/	.	4cc\	.	8f\	.	8f\	.	4cc\	.	4ee-\	.	4fff\	.
8c\J	.	.	.	8F/J	.	8a/	.	8ff\	.	8F\	et	.	8c\	et	.	8a\	et	.	8ff\	et	.	.	.	.	.	.	.	8F\J	.	8F\J	.	.	.	.	.	.	.
!	!	!	!	!	!	!	!	!	!	!	!	!	!	!	!	!	!	!	!	!	!	!LO:LB:g=original	!	!	!	!	!	!	!	!	!	!	!	!	!	!	!
=12	=12	=12	=12	=12	=12	=12	=12	=12	=12	=12	=12	=12	=12	=12	=12	=12	=12	=12	=12	=12	=12	=12	=12	=12	=12	=12	=12	=12	=12	=12	=12	=12	=12	=12	=12	=12	=12
4B-\	4	2.ryy	.	4F/	.	4cc\	.	4ee-\	.	4B-\	ter-	.	4c\	ter-	.	4f\	ter-	.	4ee-\	ter-	.	4FF/	.	4f/	.	4cc\	.	4B-\	.	4B-\	.	4cc\	.	4ee-\	.	4eee-\	.
4BB-/	3	.	.	4F/	.	4b-\	.	16dd\LL	.	4BB-/	-ra	.	4B-\	-ra	.	4e-\	-ra	.	4dd\	-ra	.	4BB-/	.	4d/	.	4b-\	.	4BB-/	.	4BB-/	.	4b-\	.	4dd\	.	4ddd\	.
.	.	.	.	.	.	.	.	16b-\	.	.	.	.	.	.	.	.	.	.	.	.	.	.	.	.	.	.	.	.	.	.	.	.	.	.	.	.	.
.	.	.	.	.	.	.	.	16cc\	.	.	.	.	.	.	.	.	.	.	.	.	.	.	.	.	.	.	.	.	.	.	.	.	.	.	.	.	.
.	.	.	.	.	.	.	.	16dd\JJ	.	.	.	.	.	.	.	.	.	.	.	.	.	.	.	.	.	.	.	.	.	.	.	.	.	.	.	.	.
4r	.	.	.	4r	.	4r	.	16ee-\LL	.	4r	.	.	4r	.	.	4r	.	.	4r	.	.	4r	.	4r	.	4r	.	4r	.	4r	.	4r	.	4r	.	4r	.
.	.	.	.	.	.	.	.	16ff\	.	.	.	.	.	.	.	.	.	.	.	.	.	.	.	.	.	.	.	.	.	.	.	.	.	.	.	.	.
.	.	.	.	.	.	.	.	16gg\	.	.	.	.	.	.	.	.	.	.	.	.	.	.	.	.	.	.	.	.	.	.	.	.	.	.	.	.	.
.	.	.	.	.	.	.	.	16aa\JJ	.	.	.	.	.	.	.	.	.	.	.	.	.	.	.	.	.	.	.	.	.	.	.	.	.	.	.	.	.
!	!	!	!	!	!	!	!	!	!	!	!	!	!LO:LB:g=original	!	!	!LO:LB:g=original	!	!	!LO:LB:g=original	!	!	!	!	!	!	!LO:LB:g=original	!	!	!	!	!	!	!	!	!	!	!
=13	=13	=13	=13	=13	=13	=13	=13	=13	=13	=13	=13	=13	=13	=13	=13	=13	=13	=13	=13	=13	=13	=13	=13	=13	=13	=13	=13	=13	=13	=13	=13	=13	=13	=13	=13	=13	=13
8ryy	.	2.ryy	.	8r	.	4dd 4f/	.	8.bb-\L	.	4B-\	Ple-	.	4f\	Ple-	.	4b-\	Ple-	.	4dd\	Ple-	.	4r	.	4r	.	4r	.	8r	.	8r	.	4r	.	4r	.	4r	.
!	!	!	!	!	!	!	!	!	!	!	!	!	!	!	!	!	!	!	!	!	!	!	!	!	!	!	!	!LO:TX:t=P:problem:mixed beam	!	!LO:TX:t=P:problem:mixed beam	!	!	!	!	!	!	!
8BB-/L	8 3	.	.	8B-\L	.	.	.	.	.	.	.	.	.	.	.	.	.	.	.	.	.	.	.	.	.	.	.	8BB-\L	.	8BB-\L	.	.	.	.	.	.	.
.	.	.	.	.	.	.	.	16ff\Jk	.	.	.	.	.	.	.	.	.	.	.	.	.	.	.	.	.	.	.	.	.	.	.	.	.	.	.	.	.
8D/	.	.	.	8d\	.	4dd 4f/	.	4dd\	.	4BB-/	-ni	.	4f\	-ni	.	4b-\	-ni	.	4dd\	-ni	.	4BB-/	.	4B-/	.	4b-\	.	8D\	.	8D\	.	4b-\	.	4dd\	.	4bb-\	.
8F/J	.	.	.	8f\J	.	.	.	.	.	.	.	.	.	.	.	.	.	.	.	.	.	.	.	.	.	.	.	8F\	.	8F\	.	.	.	.	.	.	.
!LO:TX:t=P:problem:mixed beam	!	!	!	!LO:TX:t=P:problem:mixed beam	!	!	!	!	!	!	!	!	!	!	!	!	!	!	!	!	!	!	!	!	!	!	!	!	!	!	!	!	!	!	!	!	!
8B-\L	.	.	.	8b-\L	.	8r	.	4r	.	8r	.	.	8r	.	.	8r	.	.	8r	.	.	4BB-/	.	4B-/	.	4b-\	.	8B-\	.	8B-\	.	4b-\	.	4dd\	.	4bb-\	.
8BB-/J	.	.	.	8B-/J	.	8dd 8f/	.	.	.	8BB-/	sunt	.	8d\	sunt	.	8b-\	sunt	.	8dd\	sunt	.	.	.	.	.	.	.	8BB-/J	.	8BB-/J	.	.	.	.	.	.	.
!	!	!	!	!	!	!LO:LB:g=original	!	!	!	!LO:LB:g=original	!	!	!	!	!	!	!	!	!	!	!	!	!	!	!	!	!	!	!	!	!	!	!	!	!	!	!
=14	=14	=14	=14	=14	=14	=14	=14	=14	=14	=14	=14	=14	=14	=14	=14	=14	=14	=14	=14	=14	=14	=14	=14	=14	=14	=14	=14	=14	=14	=14	=14	=14	=14	=14	=14	=14	=14
8r	.	2.ryy	.	8r	.	4b- 4g/	.	8.bb-\L	.	4C/	coe-	.	4c\	coe-	.	4g\	coe-	.	4een\	coe-	.	4r	.	4r	.	4r	.	8r	.	8r	.	4r	.	4r	.	4r	.
!LO:TX:t=P:problem:mixed beam	!	!	!	!	!	!	!	!	!	!	!	!	!	!	!	!	!	!	!	!	!	!	!	!	!	!	!	!	!	!LO:TX:t=P:problem:mixed beam	!	!	!	!	!	!	!
8C\L	n	.	.	8c\L	.	.	.	.	.	.	.	.	.	.	.	.	.	.	.	.	.	.	.	.	.	.	.	8C\L	.	8C\L	.	.	.	.	.	.	.
.	.	.	.	.	.	.	.	16gg\Jk	.	.	.	.	.	.	.	.	.	.	.	.	.	.	.	.	.	.	.	.	.	.	.	.	.	.	.	.	.
8En\	.	.	.	8en\	.	4b- 4g/	.	4een\	.	4C/	-li	.	4c\	-li	.	4g\	-li	.	4ee\	-li	.	4BB-/	.	4B-/	.	4cc\	.	8En\	.	8En\	.	4b-\	.	4eeX\	.	4eeen\	.
8G\	.	.	.	8g\J	.	.	.	.	.	.	.	.	.	.	.	.	.	.	.	.	.	.	.	.	.	.	.	8G\J	.	8G\	.	.	.	.	.	.	.
!	!	!	!	!LO:TX:t=P:problem:mixed beam	!	!	!	!	!	!	!	!	!	!	!	!	!	!	!	!	!	!	!	!	!	!	!	!LO:TX:t=P:problem:mixed beam	!	!	!	!	!	!	!	!	!
8c\	.	.	.	8cc\L	.	8r	.	4r	.	8r	.	.	8r	.	.	8r	.	.	8r	.	.	4BB-/	.	4B-/	.	4cc\	.	8c\L	.	8c\	.	4b-\	.	4ee\	.	4eee\	.
8C/J	.	.	.	8c/J	.	8b- 8g/	.	.	.	8C/	sunt	.	8c\	sunt	.	8g\	sunt	.	8ee\	sunt	.	.	.	.	.	.	.	8C/J	.	8C/J	.	.	.	.	.	.	.
!LO:LB:g=original	!	!	!	!	!	!	!	!	!	!	!	!	!	!	!	!	!	!	!	!	!	!	!	!	!	!	!	!	!	!	!	!	!	!	!	!	!
=15	=15	=15	=15	=15	=15	=15	=15	=15	=15	=15	=15	=15	=15	=15	=15	=15	=15	=15	=15	=15	=15	=15	=15	=15	=15	=15	=15	=15	=15	=15	=15	=15	=15	=15	=15	=15	=15
8r	.	2.ryy	.	8r	.	4a 4f/	.	8.ccc\L	.	4F\	coe-	.	4c\	coe-	.	4a\	coe-	.	4ff\	coe-	.	4r	.	4r	.	4r	.	8r	.	8r	.	4r	.	4r	.	4r	.
8FF/L	3	.	.	8F/L	.	.	.	.	.	.	.	.	.	.	.	.	.	.	.	.	.	.	.	.	.	.	.	8FF/L	.	8FF/L	.	.	.	.	.	.	.
.	.	.	.	.	.	.	.	16aa\Jk	.	.	.	.	.	.	.	.	.	.	.	.	.	.	.	.	.	.	.	.	.	.	.	.	.	.	.	.	.
8AA/	.	.	.	8A/	.	4a 4f/	.	4ff\	.	4F\	-li	.	4c\	-li	.	4a\	-li	.	4ff\	-li	.	4FF/	.	4f/	.	4cc\	.	8AA/	.	8AA/	.	4a\	.	4ff\	.	4fff\	.
8C/J	.	.	.	8c/J	.	.	.	.	.	.	.	.	.	.	.	.	.	.	.	.	.	.	.	.	.	.	.	8C/J	.	8C/J	.	.	.	.	.	.	.
!LO:TX:t=P:problem:mixed beam	!	!	!	!LO:TX:t=P:problem:mixed beam	!	!	!	!	!	!	!	!	!	!	!	!	!	!	!	!	!	!	!	!	!	!	!	!LO:TX:t=P:problem:mixed beam	!	!LO:TX:t=P:problem:mixed beam	!	!	!	!	!	!	!
8F\L	.	.	.	8f\L	.	8r	.	4r	.	8r	.	.	8r	.	.	8r	.	.	8r	.	.	4FF/	.	4f/	.	4cc\	.	8F\L	.	8F\L	.	4a\	.	4ff\	.	4fff\	.
8FF/J	.	.	.	8F/J	.	8cc 8a/	.	.	.	8F\	sunt	.	8c\	sunt	.	8a\	sunt	.	8ff\	sunt	.	.	.	.	.	.	.	8FF/J	.	8FF/J	.	.	.	.	.	.	.
=16	=16	=16	=16	=16	=16	=16	=16	=16	=16	=16	=16	=16	=16	=16	=16	=16	=16	=16	=16	=16	=16	=16	=16	=16	=16	=16	=16	=16	=16	=16	=16	=16	=16	=16	=16	=16	=16
8r	.	2.ryy	.	8r	.	4b- 4g/	.	8.bb-\L	.	4C/	coe-	.	4B-\	coe-	.	4g\	coe-	.	4een\	coe-	.	4r	.	4r	.	4r	.	8r	.	8r	.	4r	.	4r	.	4r	.
!	!	!	!	!	!	!	!	!	!	!	!	!	!	!	!	!	!	!	!	!	!	!	!	!	!	!	!	!	!	!LO:TX:t=P:problem:mixed beam	!	!	!	!	!	!	!
8C\L	n	.	.	8c\L	.	.	.	.	.	.	.	.	.	.	.	.	.	.	.	.	.	.	.	.	.	.	.	8C\L	.	8C\L	.	.	.	.	.	.	.
.	.	.	.	.	.	.	.	16gg\Jk	.	.	.	.	.	.	.	.	.	.	.	.	.	.	.	.	.	.	.	.	.	.	.	.	.	.	.	.	.
8En\	.	.	.	8en\	.	4b- 4g/	.	4een\	.	4C/	-li	.	4B-\	-li	.	4g\	-li	.	4ee\	-li	.	4BB-/	.	4B-/	.	4cc\	.	8En\	.	8En\	.	4b-\	.	4eeX\	.	4eeen\	.
8G\	.	.	.	8g\J	.	.	.	.	.	.	.	.	.	.	.	.	.	.	.	.	.	.	.	.	.	.	.	8G\J	.	8G\	.	.	.	.	.	.	.
!	!	!	!	!LO:TX:t=P:problem:mixed beam	!	!	!	!	!	!	!	!	!	!	!	!	!	!	!	!	!	!	!	!	!	!	!	!LO:TX:t=P:problem:mixed beam	!	!	!	!	!	!	!	!	!
8c\	.	.	.	8cc\L	.	8r	.	4r	.	8r	.	.	8r	.	.	8r	.	.	8r	.	.	4BB-/	.	4B-/	.	4cc\	.	8c\L	.	8c\	.	4b-\	.	4ee\	.	4eee\	.
8C/J	.	.	.	8c/J	.	8b- 8g/	.	.	.	8C/	et	.	8c\	et	.	8g\	et	.	8ee\	et	.	.	.	.	.	.	.	8C/J	.	8C/J	.	.	.	.	.	.	.
!	!	!	!	!	!	!	!	!LO:LB:g=original	!	!	!	!	!	!	!	!	!	!	!	!	!	!	!	!	!	!	!	!LO:LB:g=original	!	!LO:LB:g=original	!	!	!	!	!	!	!
=17	=17	=17	=17	=17	=17	=17	=17	=17	=17	=17	=17	=17	=17	=17	=17	=17	=17	=17	=17	=17	=17	=17	=17	=17	=17	=17	=17	=17	=17	=17	=17	=17	=17	=17	=17	=17	=17
!LO:TX:t=P:problem:mixed beam	!	!	!	!LO:TX:t=P:problem:mixed beam	!	!	!	!	!	!	!	!	!	!	!	!	!	!	!	!	!	!	!	!	!	!	!	!LO:TX:t=P:problem:mixed beam	!	!LO:TX:t=P:problem:mixed beam	!	!	!	!	!	!	!
8FF/L	8_ 3_	2.ryy	.	8F/L	.	4a 4f/	.	4ff 4cc 4f/	.	2.F\	ter-	.	2.f\	ter-	.	2.f\	ter-	.	2.ff\	ter-	.	4FF/	.	4f/	.	4cc\	.	8FF/L	.	8FF/L	.	4a\	.	2.ff\	.	2.fff\	.
8F\J	.	.	.	8f\J	.	.	.	.	.	.	.	.	.	.	.	.	.	.	.	.	.	.	.	.	.	.	.	8F\J	.	8F\J	.	.	.	.	.	.	.
!LO:TX:t=P:problem:mixed beam	!	!	!	!	!	!	!	!	!	!	!	!	!	!	!	!	!	!	!	!	!	!	!	!	!	!	!	!	!	!	!	!	!	!	!	!	!
8C\L	.	.	.	8c\L	.	4f 4A/	.	4f/	.	.	.	.	.	.	.	.	.	.	.	.	.	4FF/	.	4F/	.	4f/	.	8C/L	.	8C/L	.	2f/	.	.	.	.	.
8F\	.	.	.	8f\	.	.	.	.	.	.	.	.	.	.	.	.	.	.	.	.	.	.	.	.	.	.	.	8F/	.	8F/	.	.	.	.	.	.	.
8AA/	.	.	.	8A\	.	4f 4A/	.	4f/	.	.	.	.	.	.	.	.	.	.	.	.	.	4FF/	.	4F/	.	4f/	.	8AA/	.	8AA/	.	.	.	.	.	.	.
8BB-/J	.	.	.	8c\J	.	.	.	.	.	.	.	.	.	.	.	.	.	.	.	.	.	.	.	.	.	.	.	8C/J	.	8C/J	.	.	.	.	.	.	.
!	!	!	!	!LO:LB:g=original	!	!	!	!	!	!	!	!	!	!	!	!	!	!	!	!	!	!	!	!	!	!	!	!	!	!	!	!	!	!	!	!	!
=18	=18	=18	=18	=18	=18	=18	=18	=18	=18	=18	=18	=18	=18	=18	=18	=18	=18	=18	=18	=18	=18	=18	=18	=18	=18	=18	=18	=18	=18	=18	=18	=18	=18	=18	=18	=18	=18
!	!	!	!	!	!	!	!	!	!	!	!	!	!	!	!	!	!	!	!	!	!	!	!	!	!	!	!	!	!	!	!	!	!	!LO:TX:t=P:problem:mixed beam	!	!	!
4FF/	.	2.ryy	.	4F/	.	4f 4A/	.	4f/	.	4F\	-ra	.	4F/	-ra	.	4f\	-ra	.	4f/	-ra	.	4FF/	.	2F/	.	4f/	.	4FF/	.	4FF/	.	4f/	.	8ff|>\L	.	4ff\	.
.	.	.	.	.	.	.	.	.	.	.	.	.	.	.	.	.	.	.	.	.	.	.	.	.	.	.	.	.	.	.	.	.	.	8f|/	.	.	.
4r	x	.	.	4r	.	4r	.	4r	.	4r	.	.	4r	.	.	4r	.	.	4r	.	.	4r	.	.	.	4r	.	4r	.	4r	.	4r	.	8g|/	.	4r	.
!	!	!	!	!	!	!	!	!	!	!	!	!	!	!	!	!	!	!	!	!	!	!	!	!	!	!	!	!	!	!	!	!	!	!LO:TX:a:i:t=Solo	!	!	!
.	.	.	.	.	.	.	.	.	.	.	.	.	.	.	.	.	.	.	.	.	.	.	.	.	.	.	.	.	.	.	.	.	.	8a|/	.	.	.
4r	.	.	.	4r	.	4r	.	4r	.	4r	.	.	4r	.	.	4r	.	.	4r	.	.	4r	.	4r	.	4r	.	4r	.	4r	.	4r	.	8b-|/	.	4r	.
.	.	.	.	.	.	.	.	.	.	.	.	.	.	.	.	.	.	.	.	.	.	.	.	.	.	.	.	.	.	.	.	.	.	8cc|/J	.	.	.
!	!	!	!	!	!	!LO:LB:g=original	!	!	!	!	!	!	!	!	!	!	!	!	!	!	!	!	!	!	!	!	!	!	!	!	!	!	!	!	!	!	!
=19	=19	=19	=19	=19	=19	=19	=19	=19	=19	=19	=19	=19	=19	=19	=19	=19	=19	=19	=19	=19	=19	=19	=19	=19	=19	=19	=19	=19	=19	=19	=19	=19	=19	=19	=19	=19	=19
!LO:TX:a:i:t=Solo	!	!	!LO:DY:rj:b=2	!	!	!LO:TX:a:t=vi- de	!	!	!LO:DY:rj	!LO:TX:a:t=7	!	!	!LO:TX:a:t=7.	!	!	!LO:TX:a:t=7.	!	!	!LO:TX:a:t=7.	!	!	!LO:TX:a:t=15.	!	!LO:TX:a:t=15.	!	!LO:TX:a:t=15.	!	!LO:TX:a:t=15.	!	!LO:TX:a:t=15.	!	!LO:TX:a:t=15.	!	!LO:TX:b:i:t=dolce	!	!LO:TX:a:t=15.	!
4BB-/	.	2.ryy	p	4r	.	(8d/L	.	4r	p	0.r	.	.	0.r	.	.	0.r	.	.	0.r	.	.	0.r	.	0.r	.	0.r	.	0.r	.	0.r	.	0.r	.	(2dd\	.	0.r	.
.	.	.	.	.	.	8f/	.	.	.	.	.	.	.	.	.	.	.	.	.	.	.	.	.	.	.	.	.	.	.	.	.	.	.	.	.	.	.
4r	.	.	.	4d 4B-/	p	8b-/	.	(4dd\	.	.	.	.	.	.	.	.	.	.	.	.	.	.	.	.	.	.	.	.	.	.	.	.	.	.	.	.	.
.	.	.	.	.	.	8f/	.	.	.	.	.	.	.	.	.	.	.	.	.	.	.	.	.	.	.	.	.	.	.	.	.	.	.	.	.	.	.
4r	.	.	.	4d 4B-/	.	8d/	.	4ff\)	.	.	.	.	.	.	.	.	.	.	.	.	.	.	.	.	.	.	.	.	.	.	.	.	.	4ff\)	.	.	.
.	.	.	.	.	.	8f/J)	.	.	.	.	.	.	.	.	.	.	.	.	.	.	.	.	.	.	.	.	.	.	.	.	.	.	.	.	.	.	.
=20	=20	=20	=20	=20	=20	=20	=20	=20	=20	=20	=20	=20	=20	=20	=20	=20	=20	=20	=20	=20	=20	=20	=20	=20	=20	=20	=20	=20	=20	=20	=20	=20	=20	=20	=20	=20	=20
4BB-/	.	2.ryy	.	4r	.	(8d/L	.	4r	.	.	.	.	.	.	.	.	.	.	.	.	.	.	.	.	.	.	.	.	.	.	.	.	.	(2b-\	.	.	.
.	.	.	.	.	.	8f/	.	.	.	.	.	.	.	.	.	.	.	.	.	.	.	.	.	.	.	.	.	.	.	.	.	.	.	.	.	.	.
4r	.	.	.	4d 4B-/	.	8b-/	.	(4b-\	.	.	.	.	.	.	.	.	.	.	.	.	.	.	.	.	.	.	.	.	.	.	.	.	.	.	.	.	.
.	.	.	.	.	.	8f/	.	.	.	.	.	.	.	.	.	.	.	.	.	.	.	.	.	.	.	.	.	.	.	.	.	.	.	.	.	.	.
4r	.	.	.	4d 4B-/	.	8d/	.	4dd\)	.	.	.	.	.	.	.	.	.	.	.	.	.	.	.	.	.	.	.	.	.	.	.	.	.	4dd\)	.	.	.
.	.	.	.	.	.	8f/J)	.	.	.	.	.	.	.	.	.	.	.	.	.	.	.	.	.	.	.	.	.	.	.	.	.	.	.	.	.	.	.
=21	=21	=21	=21	=21	=21	=21	=21	=21	=21	=21	=21	=21	=21	=21	=21	=21	=21	=21	=21	=21	=21	=21	=21	=21	=21	=21	=21	=21	=21	=21	=21	=21	=21	=21	=21	=21	=21
4FF/	.	2.ryy	.	4r	.	(8e-/L	.	4r	.	.	.	.	.	.	.	.	.	.	.	.	.	.	.	.	.	.	.	.	.	.	.	.	.	8cc|\L	.	.	.
.	.	.	.	.	.	8f/	.	.	.	.	.	.	.	.	.	.	.	.	.	.	.	.	.	.	.	.	.	.	.	.	.	.	.	(8ff\	.	.	.
4FF/	.	.	.	4A/	.	8a/	.	(4cc\	.	.	.	.	.	.	.	.	.	.	.	.	.	.	.	.	.	.	.	.	.	.	.	.	.	8eeX\	.	.	.
.	.	.	.	.	.	8f/	.	.	.	.	.	.	.	.	.	.	.	.	.	.	.	.	.	.	.	.	.	.	.	.	.	.	.	8ff\	.	.	.
4FF/	.	.	.	4A/	.	8e-/	.	4ee-\)	.	.	.	.	.	.	.	.	.	.	.	.	.	.	.	.	.	.	.	.	.	.	.	.	.	8gg\	.	.	.
.	.	.	.	.	.	8f/J)	.	.	.	.	.	.	.	.	.	.	.	.	.	.	.	.	.	.	.	.	.	.	.	.	.	.	.	8ff\J)	.	.	.
=22	=22	=22	=22	=22	=22	=22	=22	=22	=22	=22	=22	=22	=22	=22	=22	=22	=22	=22	=22	=22	=22	=22	=22	=22	=22	=22	=22	=22	=22	=22	=22	=22	=22	=22	=22	=22	=22
4BB-/	.	2.ryy	.	4r	.	(8d/L	.	4r	.	.	.	.	.	.	.	.	.	.	.	.	.	.	.	.	.	.	.	.	.	.	.	.	.	(4dd\	.	.	.
.	.	.	.	.	.	8f/	.	.	.	.	.	.	.	.	.	.	.	.	.	.	.	.	.	.	.	.	.	.	.	.	.	.	.	.	.	.	.
4B-\	.	.	.	(4B-/	.	8b-/	.	(4dd\	.	.	.	.	.	.	.	.	.	.	.	.	.	.	.	.	.	.	.	.	.	.	.	.	.	4b-\)	.	.	.
.	.	.	.	.	.	8f/	.	.	.	.	.	.	.	.	.	.	.	.	.	.	.	.	.	.	.	.	.	.	.	.	.	.	.	.	.	.	.
4r	.	.	.	4d/)	.	8d/	.	4b-\)	.	.	.	.	.	.	.	.	.	.	.	.	.	.	.	.	.	.	.	.	.	.	.	.	.	4dd|\	.	.	.
.	.	.	.	.	.	8f/J)	.	.	.	.	.	.	.	.	.	.	.	.	.	.	.	.	.	.	.	.	.	.	.	.	.	.	.	.	.	.	.
!	!	!	!	!	!	!	!	!	!	!	!	!	!	!	!	!	!	!	!	!	!	!	!	!	!	!	!	!	!	!	!	!	!	!LO:LB:g=original	!	!	!
=23	=23	=23	=23	=23	=23	=23	=23	=23	=23	=23	=23	=23	=23	=23	=23	=23	=23	=23	=23	=23	=23	=23	=23	=23	=23	=23	=23	=23	=23	=23	=23	=23	=23	=23	=23	=23	=23
4E-\	.	2.ryy	.	4r	.	(8e-/L	.	4r	.	1.r	.	.	1.r	.	.	1.r	.	.	1.r	.	.	0.r	.	0.r	.	0.r	.	0.r	.	0.r	.	0.r	.	(2ee-X\	.	0.r	.
.	.	.	.	.	.	8g/	.	.	.	.	.	.	.	.	.	.	.	.	.	.	.	.	.	.	.	.	.	.	.	.	.	.	.	.	.	.	.
4r	.	.	.	4d 4B-/	.	8b-/	.	(4ee-X\	.	.	.	.	.	.	.	.	.	.	.	.	.	.	.	.	.	.	.	.	.	.	.	.	.	.	.	.	.
.	.	.	.	.	.	8g/	.	.	.	.	.	.	.	.	.	.	.	.	.	.	.	.	.	.	.	.	.	.	.	.	.	.	.	.	.	.	.
4E-\	.	.	.	4d 4B-/	.	8e-/	.	4gg\)	.	.	.	.	.	.	.	.	.	.	.	.	.	.	.	.	.	.	.	.	.	.	.	.	.	4gg\)	.	.	.
.	.	.	.	.	.	8g/J)	.	.	.	.	.	.	.	.	.	.	.	.	.	.	.	.	.	.	.	.	.	.	.	.	.	.	.	.	.	.	.
!LO:LB:g=original	!	!	!	!	!	!	!	!	!	!	!	!	!	!	!	!	!	!	!	!	!	!	!	!	!	!	!	!	!	!	!	!	!	!	!	!	!
=24	=24	=24	=24	=24	=24	=24	=24	=24	=24	=24	=24	=24	=24	=24	=24	=24	=24	=24	=24	=24	=24	=24	=24	=24	=24	=24	=24	=24	=24	=24	=24	=24	=24	=24	=24	=24	=24
4BB-/	.	2.ryy	.	4d 4B-/	.	(8d/L	.	4ff\	.	.	.	.	.	.	.	.	.	.	.	.	.	.	.	.	.	.	.	.	.	.	.	.	.	(4ee-\	.	.	.
.	.	.	.	.	.	8f/	.	.	.	.	.	.	.	.	.	.	.	.	.	.	.	.	.	.	.	.	.	.	.	.	.	.	.	.	.	.	.
4r	.	.	.	4r	.	8b-/	.	4r	.	.	.	.	.	.	.	.	.	.	.	.	.	.	.	.	.	.	.	.	.	.	.	.	.	4dd\	.	.	.
.	.	.	.	.	.	8f/	.	.	.	.	.	.	.	.	.	.	.	.	.	.	.	.	.	.	.	.	.	.	.	.	.	.	.	.	.	.	.
4B-\	.	.	.	4B-/	.	8d/	.	4b-\	.	.	.	.	.	.	.	.	.	.	.	.	.	.	.	.	.	.	.	.	.	.	.	.	.	4b-\)	.	.	.
.	.	.	.	.	.	8f/J)	.	.	.	.	.	.	.	.	.	.	.	.	.	.	.	.	.	.	.	.	.	.	.	.	.	.	.	.	.	.	.
=25	=25	=25	=25	=25	=25	=25	=25	=25	=25	=25	=25	=25	=25	=25	=25	=25	=25	=25	=25	=25	=25	=25	=25	=25	=25	=25	=25	=25	=25	=25	=25	=25	=25	=25	=25	=25	=25
!	!	!	!	!	!	!	!	!	!	!	!	!	!	!	!	!LO:TX:b:i:t=Volti	!	!	!	!	!	!	!	!	!	!	!	!	!	!	!	!	!	!	!	!	!
4F\	.	2.ryy	.	4F/	.	4A|/	.	4f/	.	2.r	.	.	2.r	.	.	2.r	.	.	2.r	.	.	.	.	.	.	.	.	.	.	.	.	.	.	4f\|	.	.	.
4A\	.	.	.	4f\	.	(4c/	.	(4e-X/	.	.	.	.	.	.	.	.	.	.	.	.	.	.	.	.	.	.	.	.	.	.	.	.	.	(4ee-\	.	.	.
4B-\	.	.	.	4f\	.	4B-/)	.	4d/)	.	.	.	.	.	.	.	.	.	.	.	.	.	.	.	.	.	.	.	.	.	.	.	.	.	4dd\)	.	.	.
!	!	!	!	!	!	!	!	!	!	!	!	!	!LO:LB:g=original	!	!	!LO:PB:g=original	!	!	!LO:LB:g=original	!	!	!	!	!	!	!	!	!	!	!	!	!	!	!	!	!	!
=26	=26	=26	=26	=26	=26	=26	=26	=26	=26	=26	=26	=26	=26	=26	=26	=26	=26	=26	=26	=26	=26	=26	=26	=26	=26	=26	=26	=26	=26	=26	=26	=26	=26	=26	=26	=26	=26
4F\	.	2.ryy	.	4f\	.	4A/	.	8c|/L	.	4r	.	.	4r	.	.	4r	.	.	4r	.	.	.	.	.	.	.	.	.	.	.	.	.	.	4cc\	.	.	.
.	.	.	.	.	.	.	.	8f|/	.	.	.	.	.	.	.	.	.	.	.	.	.	.	.	.	.	.	.	.	.	.	.	.	.	.	.	.	.
4r	.	.	.	4r	.	4r	.	8g|/	.	4r	.	.	4r	.	.	4r	.	.	4r	.	.	.	.	.	.	.	.	.	.	.	.	.	.	4r	.	.	.
.	.	.	.	.	.	.	.	8a|/	.	.	.	.	.	.	.	.	.	.	.	.	.	.	.	.	.	.	.	.	.	.	.	.	.	.	.	.	.
!	!	!	!	!	!	!LO:TX:a:t=re-	!	!	!	!	!	!LO:DY:b:rj	!LO:TX:a:i:t=dolce	!	!LO:DY:b:rj	!LO:TX:a:i:t=dolce	!	!LO:DY:rj:b	!LO:TX:a:i:t=dolce	!	!LO:DY:b:rj	!	!	!	!	!	!	!	!	!	!	!	!	!	!	!	!
4r	.	.	.	4r	.	4r	.	8b-|/	.	4BB-/	O-	p	4B-\	Oſ-	p	4f\	Oſ-	p	4cc\	O-	p	.	.	.	.	.	.	.	.	.	.	.	.	4r	.	.	.
.	.	.	.	.	.	.	.	8cc|/J	.	.	.	.	.	.	.	.	.	.	.	.	.	.	.	.	.	.	.	.	.	.	.	.	.	.	.	.	.
=27	=27	=27	=27	=27	=27	=27	=27	=27	=27	=27	=27	=27	=27	=27	=27	=27	=27	=27	=27	=27	=27	=27	=27	=27	=27	=27	=27	=27	=27	=27	=27	=27	=27	=27	=27	=27	=27
!	!	!	!	!	!LO:DY:rj	!LO:TX:a:t=-tro	!LO:DY:rj	!LO:TX:b:i:t=dolce	!	!	!	!	!	!	!	!	!	!	!	!	!	!	!	!	!	!	!	!	!	!	!	!	!	!LO:TX:a:t=7.	!	!	!
4BB-/	.	2.ryy	.	4r	p	(8d/L	p	(2dd\	.	2BB-/	-san-	.	2B-\	-san-	.	2f\	-san-	.	2dd\	-san-	.	0.r	.	0.r	.	0.r	.	0.r	.	0.r	.	0.r	.	0.r	.	0.r	.
.	.	.	.	.	.	8f/	.	.	.	.	.	.	.	.	.	.	.	.	.	.	.	.	.	.	.	.	.	.	.	.	.	.	.	.	.	.	.
4r	.	.	.	4d 4B-/	.	8b-/	.	.	.	.	.	.	.	.	.	.	.	.	.	.	.	.	.	.	.	.	.	.	.	.	.	.	.	.	.	.	.
.	.	.	.	.	.	8f/	.	.	.	.	.	.	.	.	.	.	.	.	.	.	.	.	.	.	.	.	.	.	.	.	.	.	.	.	.	.	.
4r	.	.	.	4d 4B-/	.	8d/	.	4ff\)	.	4BB-/	-na	.	4B-\	-na	.	4f\	-na	.	4ff\	-na	.	.	.	.	.	.	.	.	.	.	.	.	.	.	.	.	.
.	.	.	.	.	.	8f/J)	.	.	.	.	.	.	.	.	.	.	.	.	.	.	.	.	.	.	.	.	.	.	.	.	.	.	.	.	.	.	.
!	!	!	!	!	!	!	!	!	!	!LO:LB:g=original	!	!	!	!	!	!	!	!	!	!	!	!	!	!	!	!	!	!	!	!	!	!	!	!	!	!	!
=28	=28	=28	=28	=28	=28	=28	=28	=28	=28	=28	=28	=28	=28	=28	=28	=28	=28	=28	=28	=28	=28	=28	=28	=28	=28	=28	=28	=28	=28	=28	=28	=28	=28	=28	=28	=28	=28
4BB-/	.	2.ryy	.	4r	.	(8d/L	.	(2b-\	.	2BB-/	in	.	2d\	in	.	2f\	in	.	2b-\	in	.	.	.	.	.	.	.	.	.	.	.	.	.	.	.	.	.
.	.	.	.	.	.	8f/	.	.	.	.	.	.	.	.	.	.	.	.	.	.	.	.	.	.	.	.	.	.	.	.	.	.	.	.	.	.	.
4r	.	.	.	4d 4B-/	.	8b-/	.	.	.	.	.	.	.	.	.	.	.	.	.	.	.	.	.	.	.	.	.	.	.	.	.	.	.	.	.	.	.
.	.	.	.	.	.	8f/	.	.	.	.	.	.	.	.	.	.	.	.	.	.	.	.	.	.	.	.	.	.	.	.	.	.	.	.	.	.	.
4r	.	.	.	4d 4B-/	.	8d/	.	4dd\)	.	4BB-/	ex-	.	4B-\	ex-	.	4f\	ex-	.	4cc\	ex-	.	.	.	.	.	.	.	.	.	.	.	.	.	.	.	.	.
.	.	.	.	.	.	8f/J)	.	.	.	.	.	.	.	.	.	.	.	.	.	.	.	.	.	.	.	.	.	.	.	.	.	.	.	.	.	.	.
!	!	!	!	!	!	!LO:LB:g=original	!	!LO:LB:g=original	!	!	!	!	!	!	!	!	!	!	!	!	!	!	!	!	!	!	!	!	!	!	!	!	!	!	!	!	!
=29	=29	=29	=29	=29	=29	=29	=29	=29	=29	=29	=29	=29	=29	=29	=29	=29	=29	=29	=29	=29	=29	=29	=29	=29	=29	=29	=29	=29	=29	=29	=29	=29	=29	=29	=29	=29	=29
4FF/	.	2.ryy	.	4r	.	(8e-/L	.	8cc|\L	.	2.F\	-cel-	.	2.e-X\	-cel-	.	2.f\	-cel-	.	2.cc\	-cel-	.	.	.	.	.	.	.	.	.	.	.	.	.	.	.	.	.
.	.	.	.	.	.	8f/	.	(8ff\	.	.	.	.	.	.	.	.	.	.	.	.	.	.	.	.	.	.	.	.	.	.	.	.	.	.	.	.	.
4FF/	.	.	.	4A/	.	8a/	.	8een\	.	.	.	.	.	.	.	.	.	.	.	.	.	.	.	.	.	.	.	.	.	.	.	.	.	.	.	.	.
.	.	.	.	.	.	8f/	.	8ff\	.	.	.	.	.	.	.	.	.	.	.	.	.	.	.	.	.	.	.	.	.	.	.	.	.	.	.	.	.
4FF/	.	.	.	4A/	.	8e-/	.	8gg\	.	.	.	.	.	.	.	.	.	.	.	.	.	.	.	.	.	.	.	.	.	.	.	.	.	.	.	.	.
.	.	.	.	.	.	8f/J)	.	8ff\J)	.	.	.	.	.	.	.	.	.	.	.	.	.	.	.	.	.	.	.	.	.	.	.	.	.	.	.	.	.
!	!	!	!	!LO:LB:g=original	!	!	!	!	!	!	!	!	!	!	!	!	!	!	!	!	!	!	!	!	!	!	!	!	!	!	!	!	!	!	!	!	!
=30	=30	=30	=30	=30	=30	=30	=30	=30	=30	=30	=30	=30	=30	=30	=30	=30	=30	=30	=30	=30	=30	=30	=30	=30	=30	=30	=30	=30	=30	=30	=30	=30	=30	=30	=30	=30	=30
4BB-/	.	2.ryy	.	4r	.	(8d/L	.	(4dd\	.	4BB-/	-sis	.	4d\	-sis	.	4f\	-sis	.	4b-\	-sis	.	.	.	.	.	.	.	.	.	.	.	.	.	.	.	.	.
.	.	.	.	.	.	8f/	.	.	.	.	.	.	.	.	.	.	.	.	.	.	.	.	.	.	.	.	.	.	.	.	.	.	.	.	.	.	.
4B-\	.	.	.	(4B-/	.	8b-/	.	4b-\)	.	4r	.	.	4r	.	.	4r	.	.	4r	.	.	.	.	.	.	.	.	.	.	.	.	.	.	.	.	.	.
.	.	.	.	.	.	8f/	.	.	.	.	.	.	.	.	.	.	.	.	.	.	.	.	.	.	.	.	.	.	.	.	.	.	.	.	.	.	.
4r	.	.	.	4d/)	.	8d/	.	4dd|\	.	4BB-/	O-	.	4B-\	Oſ-	.	4f\	O-	.	4dd\	O-	.	.	.	.	.	.	.	.	.	.	.	.	.	.	.	.	.
.	.	.	.	.	.	8f/J)	.	.	.	.	.	.	.	.	.	.	.	.	.	.	.	.	.	.	.	.	.	.	.	.	.	.	.	.	.	.	.
=31	=31	=31	=31	=31	=31	=31	=31	=31	=31	=31	=31	=31	=31	=31	=31	=31	=31	=31	=31	=31	=31	=31	=31	=31	=31	=31	=31	=31	=31	=31	=31	=31	=31	=31	=31	=31	=31
4E-\	.	2.ryy	.	4r	.	(8e-/L	.	(2ee-X\	.	2E-\	-san-	.	2B-\	-san-	.	2g\	-ſan-	.	2ee-\	-san-	.	1.r	.	1.r	.	1.r	.	1.r	.	1.r	.	1.r	.	1.r	.	1.r	.
.	.	.	.	.	.	8g/	.	.	.	.	.	.	.	.	.	.	.	.	.	.	.	.	.	.	.	.	.	.	.	.	.	.	.	.	.	.	.
4r	.	.	.	4e- 4B-/	.	8b-/	.	.	.	.	.	.	.	.	.	.	.	.	.	.	.	.	.	.	.	.	.	.	.	.	.	.	.	.	.	.	.
.	.	.	.	.	.	8g/	.	.	.	.	.	.	.	.	.	.	.	.	.	.	.	.	.	.	.	.	.	.	.	.	.	.	.	.	.	.	.
4E-\	.	.	.	4e- 4B-/	.	8e-/	.	4gg\)	.	4E-\	-na	.	4B-\	-na	.	4b-\	-na	.	4gg\	-na	.	.	.	.	.	.	.	.	.	.	.	.	.	.	.	.	.
.	.	.	.	.	.	8g/J)	.	.	.	.	.	.	.	.	.	.	.	.	.	.	.	.	.	.	.	.	.	.	.	.	.	.	.	.	.	.	.
=32	=32	=32	=32	=32	=32	=32	=32	=32	=32	=32	=32	=32	=32	=32	=32	=32	=32	=32	=32	=32	=32	=32	=32	=32	=32	=32	=32	=32	=32	=32	=32	=32	=32	=32	=32	=32	=32
4D\	.	2.ryy	.	4d 4B-/	.	4f/	.	8ff|\L	.	2D\	in	.	2B-\	in	.	2b-\	in	.	2ff\	in	.	.	.	.	.	.	.	.	.	.	.	.	.	.	.	.	.
.	.	.	.	.	.	.	.	(8ddd\	.	.	.	.	.	.	.	.	.	.	.	.	.	.	.	.	.	.	.	.	.	.	.	.	.	.	.	.	.
4r	.	.	.	4r	.	4r	.	8aa\	.	.	.	.	.	.	.	.	.	.	.	.	.	.	.	.	.	.	.	.	.	.	.	.	.	.	.	.	.
.	.	.	.	.	.	.	.	8bb-\	.	.	.	.	.	.	.	.	.	.	.	.	.	.	.	.	.	.	.	.	.	.	.	.	.	.	.	.	.
4E-\	.	.	.	4e-\	.	(8e-/L	.	8gg\)	.	4E-\	ex-	.	4e-\	ex-	.	4g\	ex-	.	4ee-\	ex-	.	.	.	.	.	.	.	.	.	.	.	.	.	.	.	.	.
.	.	.	.	.	.	8g/J)	.	8ee-|\J	.	.	.	.	.	.	.	.	.	.	.	.	.	.	.	.	.	.	.	.	.	.	.	.	.	.	.	.	.
=33	=33	=33	=33	=33	=33	=33	=33	=33	=33	=33	=33	=33	=33	=33	=33	=33	=33	=33	=33	=33	=33	=33	=33	=33	=33	=33	=33	=33	=33	=33	=33	=33	=33	=33	=33	=33	=33
4F\	.	2.ryy	.	4f\	.	4f/	.	8dd|\L	.	2.F\	-cel-	.	(2f\	-cel-	.	2.f\	-cel-	.	(2dd\	-cel-	.	2.r	.	2.r	.	2.r	.	2.r	.	2.r	.	2.r	.	2.r	.	2.r	.
.	.	.	.	.	.	.	.	(8ff\	.	.	.	.	.	.	.	.	.	.	.	.	.	.	.	.	.	.	.	.	.	.	.	.	.	.	.	.	.
4r	.	.	.	4r	.	4r	.	8een\	.	.	.	.	.	.	.	.	.	.	.	.	.	.	.	.	.	.	.	.	.	.	.	.	.	.	.	.	.
.	.	.	.	.	.	.	.	8ff\)	.	.	.	.	.	.	.	.	.	.	.	.	.	.	.	.	.	.	.	.	.	.	.	.	.	.	.	.	.
4FF/	.	.	.	4F/	.	4e-/	.	8a|\	.	.	.	.	4e-\)	.	.	.	.	.	4cc\)	.	.	.	.	.	.	.	.	.	.	.	.	.	.	.	.	.	.
.	.	.	.	.	.	.	.	8cc|\J	.	.	.	.	.	.	.	.	.	.	.	.	.	.	.	.	.	.	.	.	.	.	.	.	.	.	.	.	.
!	!	!	!	!	!	!	!	!	!	!	!	!	!LO:LB:g=original	!	!	!LO:LB:g=original	!	!	!	!	!	!	!	!	!	!	!	!	!	!	!	!LO:LB:g=original	!	!	!	!LO:LB:g=original	!
=34	=34	=34	=34	=34	=34	=34	=34	=34	=34	=34	=34	=34	=34	=34	=34	=34	=34	=34	=34	=34	=34	=34	=34	=34	=34	=34	=34	=34	=34	=34	=34	=34	=34	=34	=34	=34	=34
!	!	!	!LO:DY:rj:b=2	!	!LO:DY:rj	!LO:TX:t=P:problem:mixed beam	!LO:DY:rj:t=f.	!	!LO:DY:rj	!	!	!	!	!	!	!	!	!	!	!	!	!	!	!	!LO:DY:rj	!	!LO:DY:rj:t=f.	!	!LO:DY:rj	!	!LO:DY:rj:t=f.	!	!LO:DY:rj	!	!LO:DY:rj:t=f.	!	!LO:DY:rj
4BB-/	8 3	2.ryy	f	4B-/	f	8d|/L	f	8b-|\L	f	4BB-/	-sis	.	4d\	-sis	.	4f\	-sis	.	4b-\	-sis	.	4BB-/	.	4B-/	f	4b-\	f	4d\	f	4f\	f	4dd\	f	4ff\	f	4bb-\	f
.	.	.	.	.	.	8ff|\J	.	8bb-|\	.	.	.	.	.	.	.	.	.	.	.	.	.	.	.	.	.	.	.	.	.	.	.	.	.	.	.	.	.
4r	.	.	.	4r	.	8bb-'\L	.	8ddd|\	.	4r	.	.	4r	.	.	4r	.	.	4r	.	.	4r	.	4r	.	4r	.	4r	.	4r	.	4r	.	4r	.	4r	.
.	.	.	.	.	.	8aa'\	.	8ccc|\	.	.	.	.	.	.	.	.	.	.	.	.	.	.	.	.	.	.	.	.	.	.	.	.	.	.	.	.	.
!	!	!	!	!	!	!	!	!	!	!	!	!LO:DY:b:rj	!	!	!	!	!	!LO:DY:rj:b	!	!	!LO:DY:rj:b	!	!	!	!	!	!	!	!	!	!	!	!	!	!	!	!
4B-\	.	.	.	4d\	.	8gg'\	.	8bb-|\	.	4B-\	O-	f	4d\	Oſ-	f	4b-\	O-	f	4ff\	O-	f	4BB-/	.	4B-/	.	4b-\	.	4d\	.	4f\	.	4dd\	.	4ff\	.	4fff\	.
.	.	.	.	.	.	8ff'\J	.	8aa|\J	.	.	.	.	.	.	.	.	.	.	.	.	.	.	.	.	.	.	.	.	.	.	.	.	.	.	.	.	.
!LO:LB:g=original	!	!	!	!	!	!LO:LB:g=original	!	!	!	!	!	!	!	!	!	!	!	!	!LO:LB:g=original	!	!	!	!	!LO:LB:g=original	!	!	!	!	!	!	!	!	!	!	!	!	!
=35	=35	=35	=35	=35	=35	=35	=35	=35	=35	=35	=35	=35	=35	=35	=35	=35	=35	=35	=35	=35	=35	=35	=35	=35	=35	=35	=35	=35	=35	=35	=35	=35	=35	=35	=35	=35	=35
4F\	8 3	2.ryy	.	4e-\	.	8ee-'\L	.	8gg|\L	.	4E-\	-san-	.	4e-\	-ſan-	.	4b-\	-ſan-	.	4gg\	-ſan-	.	4BB-/	.	4B-/	.	4b-\	.	4e-\	.	4g\	.	4ee-\	.	4gg\	.	8ggg\L	.
.	.	.	.	.	.	8dd'\	.	8ff|\	.	.	.	.	.	.	.	.	.	.	.	.	.	.	.	.	.	.	.	.	.	.	.	.	.	.	.	8fff\	.
4r	.	.	.	4r	.	8cc'\	.	8ee-|\	.	4E-\	-na	.	4e-\	-na	.	4b-\	-na	.	4gg\	-na	.	4r	.	4r	.	4r	.	4r	.	4r	.	4r	.	4r	.	8eee-\	.
.	.	.	.	.	.	8b-'\	.	8dd|\	.	.	.	.	.	.	.	.	.	.	.	.	.	.	.	.	.	.	.	.	.	.	.	.	.	.	.	8ddd\	.
4e-\	.	.	.	4e-\	.	8a'\	.	8cc|\	.	4r	.	.	4r	.	.	4r	.	.	4r	.	.	4r	.	4r	.	4r	.	4e-\	.	4g\	.	4cc\	.	4gg\	.	8ccc\	.
.	.	.	.	.	.	8g'\J	.	8b-|\J	.	.	.	.	.	.	.	.	.	.	.	.	.	.	.	.	.	.	.	.	.	.	.	.	.	.	.	8bb-\J	.
!	!	!	!	!	!	!	!	!	!	!LO:LB:g=original	!	!	!	!	!	!	!	!	!	!	!	!	!	!	!	!	!	!	!	!	!	!	!	!	!	!	!
=36	=36	=36	=36	=36	=36	=36	=36	=36	=36	=36	=36	=36	=36	=36	=36	=36	=36	=36	=36	=36	=36	=36	=36	=36	=36	=36	=36	=36	=36	=36	=36	=36	=36	=36	=36	=36	=36
4F\	5	2.ryy	.	4f\	.	8a'/L	.	8cc\L	.	2F\	in	.	2f\	in	.	(4a\	in	.	(4cc\	in	.	4FF/	.	4F/	.	4f/	.	4A\	.	4c\	.	4a\	.	4cc\	.	4ccc\	.
.	.	.	.	.	.	8f'/	.	8ee-\	.	.	.	.	.	.	.	.	.	.	.	.	.	.	.	.	.	.	.	.	.	.	.	.	.	.	.	.	.
4F\	6	.	.	4f\	.	8b-'/	.	8dd\	.	.	.	.	.	.	.	4b-\)	.	.	4dd\)	.	.	4FF/	.	4F/	.	4f/	.	4B-\	.	4d\	.	4b-\	.	4dd\	.	4ddd\	.
.	.	.	.	.	.	8f'/	.	8ee-\	.	.	.	.	.	.	.	.	.	.	.	.	.	.	.	.	.	.	.	.	.	.	.	.	.	.	.	.	.
4F\	7	.	.	4f\	.	8c'/	.	8dd\	.	4F\	ex-	.	4f\	ex-	.	4cc\	ex-	.	4ee-\	ex-	.	4FF/	.	4F/	.	4f/	.	4c\	.	4e-\	.	4cc\	.	4ee-\	.	4eee-\	.
.	.	.	.	.	.	8f'/J	.	8ee-\J	.	.	.	.	.	.	.	.	.	.	.	.	.	.	.	.	.	.	.	.	.	.	.	.	.	.	.	.	.
!	!	!	!	!	!	!	!	!LO:LB:g=original	!	!	!	!	!	!	!	!	!	!	!	!	!	!	!	!	!	!	!	!	!	!	!	!	!	!	!	!	!
=37	=37	=37	=37	=37	=37	=37	=37	=37	=37	=37	=37	=37	=37	=37	=37	=37	=37	=37	=37	=37	=37	=37	=37	=37	=37	=37	=37	=37	=37	=37	=37	=37	=37	=37	=37	=37	=37
4B-\	4	2.ryy	.	4f\	.	4cc\	.	4ee-\	.	4F\	-cel-	.	4f\	-cel-	.	4cc\	-cel-	.	4ee-\	-cel-	.	4FF/	.	4F/	.	4f/	.	4c\	.	4e-\	.	4cc\	.	4ee-\	.	4eee-\	.
4BB-/	3	.	.	4f\	.	8b-'\L	.	8dd|\L	.	4B-\	-sis	.	4f\	-sis	.	4b-\	-sis	.	4dd\	-sis	.	4BB-/	.	4B-/	.	4b-\	.	4B-\	.	4d\	.	4b-\	.	4dd\	.	4ddd\	.
.	.	.	.	.	.	8a'\	.	8cc|\	.	.	.	.	.	.	.	.	.	.	.	.	.	.	.	.	.	.	.	.	.	.	.	.	.	.	.	.	.
4r	.	.	.	4r	.	8b-'\	.	8dd|\	.	4r	.	.	4r	.	.	4r	.	.	4r	.	.	4r	.	4r	.	4r	.	4r	.	4r	.	4r	.	4r	.	4r	.
.	.	.	.	.	.	8cc'\J	.	8ee-|\J	.	.	.	.	.	.	.	.	.	.	.	.	.	.	.	.	.	.	.	.	.	.	.	.	.	.	.	.	.
=38	=38	=38	=38	=38	=38	=38	=38	=38	=38	=38	=38	=38	=38	=38	=38	=38	=38	=38	=38	=38	=38	=38	=38	=38	=38	=38	=38	=38	=38	=38	=38	=38	=38	=38	=38	=38	=38
4BB-/	8 3	2.ryy	.	4B-/	.	8dd'\L	.	8ff|\L	.	4r	.	.	4r	.	.	4r	.	.	4r	.	.	4BB-/	.	4B-/	.	4b-\	.	4d\	.	4f\	.	4dd\	.	4ff\	.	4bb-\	.
.	.	.	.	.	.	8ff'\	.	8bb-|\	.	.	.	.	.	.	.	.	.	.	.	.	.	.	.	.	.	.	.	.	.	.	.	.	.	.	.	.	.
4r	.	.	.	4r	.	8bb-'\	.	8ddd|\	.	4r	.	.	4r	.	.	4r	.	.	4r	.	.	4r	.	4r	.	4r	.	4r	.	4r	.	4r	.	4r	.	4r	.
.	.	.	.	.	.	8aa'\	.	8ccc|\	.	.	.	.	.	.	.	.	.	.	.	.	.	.	.	.	.	.	.	.	.	.	.	.	.	.	.	.	.
4B-\	.	.	.	4d\	.	8gg'\	.	8bb-|\	.	4B-\	O-	.	4d\	O-	.	4b-\	O-	.	4ff\	O-	.	4BB-/	.	4B-/	.	4b-\	.	4d\	.	4f\	.	4dd\	.	4ff\	.	4fff\	.
.	.	.	.	.	.	8ff'\J	.	8aa|\J	.	.	.	.	.	.	.	.	.	.	.	.	.	.	.	.	.	.	.	.	.	.	.	.	.	.	.	.	.
!	!	!	!	!	!	!	!	!	!	!	!	!	!	!	!	!	!	!	!	!	!	!LO:LB:g=original	!	!	!	!	!	!	!	!	!	!	!	!	!	!	!
=39	=39	=39	=39	=39	=39	=39	=39	=39	=39	=39	=39	=39	=39	=39	=39	=39	=39	=39	=39	=39	=39	=39	=39	=39	=39	=39	=39	=39	=39	=39	=39	=39	=39	=39	=39	=39	=39
4E-\	8_ 3_	2.ryy	.	4e-\	.	8ee-'\L	.	8gg|\L	.	4E-\	-san-	.	4e-\	-ſan-	.	4b-\	-san-	.	4gg\	-san-	.	4BB-/	.	4B-/	.	4b-\	.	4e-\	.	4g\	.	4ee-\	.	4gg\	.	8ggg\L	.
.	.	.	.	.	.	8dd'\	.	8ff|\	.	.	.	.	.	.	.	.	.	.	.	.	.	.	.	.	.	.	.	.	.	.	.	.	.	.	.	8fff\	.
4r	.	.	.	4r	.	8cc'\	.	8ee-|\	.	4E-\	-na	.	4e-\	-na	.	4b-\	-na	.	4gg\	-na	.	4r	.	4r	.	4r	.	4r	.	4r	.	4r	.	4r	.	8eee-\	.
.	.	.	.	.	.	8b-'\	.	8dd|\	.	.	.	.	.	.	.	.	.	.	.	.	.	.	.	.	.	.	.	.	.	.	.	.	.	.	.	8ddd\	.
4e-\	.	.	.	4e-\	.	8a'\	.	8cc|\	.	8E-\	in	.	8e-\	in	.	8b-\	in	.	8gg\	in	.	4r	.	4r	.	4r	.	4e-\	.	4g\	.	4ee-\	.	4gg\	.	8ccc\	.
.	.	.	.	.	.	8g'\J	.	8b-|\J	.	8E-\	ex-	.	8e-\	ex-	.	8b-\	ex-	.	8gg\	ex-	.	.	.	.	.	.	.	.	.	.	.	.	.	.	.	8bb-\J	.
=40	=40	=40	=40	=40	=40	=40	=40	=40	=40	=40	=40	=40	=40	=40	=40	=40	=40	=40	=40	=40	=40	=40	=40	=40	=40	=40	=40	=40	=40	=40	=40	=40	=40	=40	=40	=40	=40
4F\	7	2.ryy	.	4f\	.	8a'\L	.	8cc|\L	.	2.F\	-cel-	.	(2e-\	-cel-	.	2.a\	-cel-	.	(2cc\	-cel-	.	4FF/	.	4F/	.	4f/	.	2.c\	.	2.e-\	.	2.cc\	.	2.aa\	.	2.aa\	.
.	.	.	.	.	.	8b-'\	.	8dd|\	.	.	.	.	.	.	.	.	.	.	.	.	.	.	.	.	.	.	.	.	.	.	.	.	.	.	.	.	.
4F\	.	.	.	4f\	.	8cc'\	.	8ee-|\	.	.	.	.	.	.	.	.	.	.	.	.	.	4FF/	.	4F/	.	4f/	.	.	.	.	.	.	.	.	.	.	.
.	.	.	.	.	.	8dd'\	.	8ff|\	.	.	.	.	.	.	.	.	.	.	.	.	.	.	.	.	.	.	.	.	.	.	.	.	.	.	.	.	.
4F\	.	.	.	4f\	.	8ee-'\	.	8gg|\	.	.	.	.	4c\)	.	.	.	.	.	4ff\)	.	.	4FF/	.	4F/	.	4f/	.	.	.	.	.	.	.	.	.	.	.
.	.	.	.	.	.	8cc'\J	.	8aa|\J	.	.	.	.	.	.	.	.	.	.	.	.	.	.	.	.	.	.	.	.	.	.	.	.	.	.	.	.	.
!	!	!	!	!	!	!LO:LB:g=original	!	!	!	!	!	!	!LO:LB:g=original	!	!	!LO:LB:g=original	!	!	!	!	!	!	!	!	!	!	!	!	!	!	!	!	!	!LO:LB:g=original	!	!	!
=41	=41	=41	=41	=41	=41	=41	=41	=41	=41	=41	=41	=41	=41	=41	=41	=41	=41	=41	=41	=41	=41	=41	=41	=41	=41	=41	=41	=41	=41	=41	=41	=41	=41	=41	=41	=41	=41
4B-\	3	2.ryy	.	4f 4B-/	.	4dd 4f/	.	8bb-|\L	.	2.BB-/	.	.	[2.B-\	.	.	[2.f\	.	.	[2.dd\	.	.	4BB-/	.	4B-/	.	4b-\	.	4B-\	.	4d\	.	4dd\	.	4bb-\	.	4ddd\	.
.	.	.	.	.	.	.	.	8ddd|\	.	.	.	.	.	.	.	.	.	.	.	.	.	.	.	.	.	.	.	.	.	.	.	.	.	.	.	.	.
4r	.	.	.	4r	.	4r	.	8ff|\	.	.	.	.	.	.	.	.	.	.	.	.	.	4r	.	4r	.	4r	.	4r	.	4r	.	4r	.	4r	.	4r	.
.	.	.	.	.	.	.	.	8bb-|\	.	.	.	.	.	.	.	.	.	.	.	.	.	.	.	.	.	.	.	.	.	.	.	.	.	.	.	.	.
4r	.	.	.	4r	.	4r	.	8dd|\	.	.	.	.	.	.	.	.	.	.	.	.	.	4r	.	4r	.	4r	.	4r	.	4r	.	4r	.	4r	.	4r	.
.	.	.	.	.	.	.	.	8ff|\J	.	.	.	.	.	.	.	.	.	.	.	.	.	.	.	.	.	.	.	.	.	.	.	.	.	.	.	.	.
!	!	!	!	!LO:LB:g=original	!	!	!	!	!	!	!	!	!	!	!	!	!	!	!	!	!	!	!	!	!	!LO:LB:g=original	!	!LO:LB:g=original	!	!	!	!	!	!	!	!	!
=42	=42	=42	=42	=42	=42	=42	=42	=42	=42	=42	=42	=42	=42	=42	=42	=42	=42	=42	=42	=42	=42	=42	=42	=42	=42	=42	=42	=42	=42	=42	=42	=42	=42	=42	=42	=42	=42
8B-\L	.	2.ryy	.	8b-'\L	.	8b-'/L	.	8b-|/L	.	2.BB-/	.	.	2.B-\]	.	.	2.f\]	.	.	2.dd\]	.	.	4BB-/	.	4b-\	.	4b-\	.	4B-\	.	4B-\	.	4b-\	.	4b-\	.	8bb-\L	.
8d\	.	.	.	8dd'\J	.	8dd'/J	.	8dd|/	.	.	.	.	.	.	.	.	.	.	.	.	.	.	.	.	.	.	.	.	.	.	.	.	.	.	.	8ddd\	.
!	!	!	!	!	!	!	!	!	!	!	!	!	!	!	!	!	!	!	!	!	!	!	!	!	!	!	!	!LO:TX:a:t=f:color=grey	!	!	!	!	!	!	!	!	!
8F\	.	.	.	8f\L	.	8f'/L	.	8f|/	.	.	.	.	.	.	.	.	.	.	.	.	.	4r	.	4f/	.	4f/	.	4F\	.	4F\	.	4f/	.	4f/	.	8ff\	.
8B-\J	.	.	.	8dd\	.	8dd'/	.	8b-|/	.	.	.	.	.	.	.	.	.	.	.	.	.	.	.	.	.	.	.	.	.	.	.	.	.	.	.	8bb-\	.
8D\L	.	.	.	8d\	.	8d'/	.	8d|/	.	.	.	.	.	.	.	.	.	.	.	.	.	4r	.	4d/	.	4d/	.	4D/	.	4D\	.	4d/	.	4d/	.	8dd\	.
8F\J	.	.	.	8f\J	.	8f'/J	.	8f|/J	.	.	.	.	.	.	.	.	.	.	.	.	.	.	.	.	.	.	.	.	.	.	.	.	.	.	.	8ff\J	.
!	!	!	!	!	!	!	!	!	!	!	!	!	!	!	!	!	!	!	!	!	!	!	!	!	!	!	!	!	!	!LO:LB:g=original	!	!	!	!LO:LB:g=original	!	!LO:LB:g=original	!
=43	=43	=43	=43	=43	=43	=43	=43	=43	=43	=43	=43	=43	=43	=43	=43	=43	=43	=43	=43	=43	=43	=43	=43	=43	=43	=43	=43	=43	=43	=43	=43	=43	=43	=43	=43	=43	=43
4BB-|/	.	2.ryy|	.	4B-/	.	4B-/	.	4B-/	.	4BB-/	-sis	.	4B-\	-sis	.	4f\	-sis	.	4dd\	-sis	.	4BB-/	.	4B-/	.	4B-/	.	4BB-/	.	4BB-/	.	4B-/	.	4B-/	.	4dd\	.
4BB-|/	.	.	.	4B-/	.	4B-/	.	4B-/	.	4r	.	.	4r	.	.	4r	.	.	4r	.	.	4BB-/	.	4B-/	.	4B-/	.	4BB-/	.	4BB-/	.	4B-/	.	4B-/	.	4dd\	.
4BB-|/	.	.	.	4B-/	.	4B-/	.	4B-/	.	4r	.	.	4r	.	.	4r	.	.	4r	.	.	4BB-/	.	4B-/	.	4B-/	.	4BB-/	.	4BB-/	.	4B-/	.	4B-/	.	4dd\	.
!	!	!	!	!	!	!	!	!	!	!	!	!	!	!	!	!	!	!	!LO:LB:g=original	!	!	!	!	!	!	!	!	!	!	!	!	!LO:LB:g=original	!	!	!	!	!
=44	=44	=44	=44	=44	=44	=44	=44	=44	=44	=44	=44	=44	=44	=44	=44	=44	=44	=44	=44	=44	=44	=44	=44	=44	=44	=44	=44	=44	=44	=44	=44	=44	=44	=44	=44	=44	=44
!	!	!	!	!	!	!	!	!	!	!LO:TX:a:t=7	!	!	!LO:TX:a:t=7.	!	!	!LO:TX:a:t=7	!	!	!LO:TX:a:t=7.	!	!	!	!	!	!	!	!	!	!	!	!	!	!	!	!	!	!
4BB-|/	.	2.ryy|	.	4B-/	.	4B-/	.	4B-/	.	0.r	.	.	0.r	.	.	0.r	.	.	0.r	.	.	4BB-/	.	4B-/	.	4B-/	.	4BB-/	.	4BB-/	.	4B-/	.	4B-/	.	4dd\	.
4BB-|/	.	.	.	4B-/	.	4B-/	.	4B-/	.	.	.	.	.	.	.	.	.	.	.	.	.	4BB-/	.	4B-/	.	4B-/	.	4BB-/	.	4BB-/	.	4B-/	.	4B-/	.	4dd\	.
4BB-|/	.	.	.	4B-/	.	4B-/	.	4B-/	.	.	.	.	.	.	.	.	.	.	.	.	.	4BB-/	.	4B-/	.	4B-/	.	4BB-/	.	4BB-/	.	4B-/	.	4B-/	.	4dd\	.
=45	=45	=45	=45	=45	=45	=45	=45	=45	=45	=45	=45	=45	=45	=45	=45	=45	=45	=45	=45	=45	=45	=45	=45	=45	=45	=45	=45	=45	=45	=45	=45	=45	=45	=45	=45	=45	=45
!	!	!	!	!	!	!	!	!	!	!	!	!	!	!	!	!	!	!	!	!	!	!	!	!	!	!LO:TX:a:i:t=Solo	!LO:DY:rj	!	!	!	!	!	!	!	!	!	!
4BB-/	.	2.ryy|	.	4B-/	.	4B-/	.	4B-/	.	.	.	.	.	.	.	.	.	.	.	.	.	4BB-/	.	4B-/	.	4B-/	p	4BB-/	.	4BB-/	.	4B-/	.	4B-/	.	4dd\	.
4r	.	.	.	4r	.	4r	.	4r	.	.	.	.	.	.	.	.	.	.	.	.	.	4r	.	4r	.	4B-/	.	4r	.	4r	.	4r	.	4r	.	4r	.
4r	.	.	.	4r	.	4r	.	4r	.	.	.	.	.	.	.	.	.	.	.	.	.	4r	.	4r	.	4B-/	.	4r	.	4r	.	4r	.	4r	.	4r	.
=46	=46	=46	=46	=46	=46	=46	=46	=46	=46	=46	=46	=46	=46	=46	=46	=46	=46	=46	=46	=46	=46	=46	=46	=46	=46	=46	=46	=46	=46	=46	=46	=46	=46	=46	=46	=46	=46
!LO:TX:a:t=1.	!	!	!	!LO:TX:a:t=1.	!	!LO:TX:a:t=1.	!	!LO:TX:a:t=1.	!	!	!	!	!	!	!	!	!	!	!	!	!	!LO:TX:a:t=3.	!	!LO:TX:a:t=3.	!	!	!	!LO:TX:a:t=3.	!	!LO:TX:a:t=3.	!	!LO:TX:a:t=3.	!	!LO:TX:a:t=3.	!	!LO:TX:a:t=5.	!
2.r	.	2.ryy	.	2.r	.	2.r	.	2.r	.	.	.	.	.	.	.	.	.	.	.	.	.	1.r	.	1.r	.	4B-/	.	1.r	.	1.r	.	1.r	.	1.r	.	0.r	.
.	.	.	.	.	.	.	.	.	.	.	.	.	.	.	.	.	.	.	.	.	.	.	.	.	.	4B-/	.	.	.	.	.	.	.	.	.	.	.
!	!	!	!	!	!	!LO:TX:b:i:t=Verte Cito	!	!	!	!	!	!	!	!	!	!	!	!	!	!	!	!	!	!	!	!	!	!	!	!	!	!	!	!	!	!	!
.	.	.	.	.	.	.	.	.	.	.	.	.	.	.	.	.	.	.	.	.	.	.	.	.	.	4B-/	.	.	.	.	.	.	.	.	.	.	.
!	!	!	!	!	!	!LO:PB:g=original	!	!LO:LB:g=original	!	!	!	!	!	!	!	!	!	!	!	!	!	!	!	!	!	!	!	!	!	!	!	!	!	!	!	!	!
=47	=47	=47	=47	=47	=47	=47	=47	=47	=47	=47	=47	=47	=47	=47	=47	=47	=47	=47	=47	=47	=47	=47	=47	=47	=47	=47	=47	=47	=47	=47	=47	=47	=47	=47	=47	=47	=47
*	*	*	*^	*	*	*	*	*	*	*	*	*	*	*	*	*	*	*	*	*	*	*	*	*	*	*	*	*	*	*	*	*	*	*	*	*	*
!LO:TX:a:Bi:t=Basso	!	!LO:TX:a:Bi:t=Violoncello	!LO:DY:rj:b=1	!LO:DY:rj:b=2	!	!LO:DY:rj	!LO:TX:b:i:t=dol&colon;	!LO:DY:rj	!LO:TX:b:i:t=dolce	!LO:DY:rj	!	!	!	!	!	!	!	!	!	!	!	!	!	!	!	!	!	!	!	!	!	!	!	!	!	!	!	!
[2.BB-/	.	[2.BB-/	p	p	2.d [2.A-X/	p	(4ff\	p	(4aa-X\	mf	.	.	.	.	.	.	.	.	.	.	.	.	.	.	.	.	4B-/	.	.	.	.	.	.	.	.	.	.	.
.	.	.	.	.	.	.	4ee-\	.	4gg\	.	.	.	.	.	.	.	.	.	.	.	.	.	.	.	.	.	4r	.	.	.	.	.	.	.	.	.	.	.
.	.	.	.	.	.	.	4dd\	.	4ff\	.	.	.	.	.	.	.	.	.	.	.	.	.	.	.	.	.	4r	.	.	.	.	.	.	.	.	.	.	.
*	*	*	*v	*v	*	*	*	*	*	*	*	*	*	*	*	*	*	*	*	*	*	*	*	*	*	*	*	*	*	*	*	*	*	*	*	*	*	*
=48	=48	=48	=48	=48	=48	=48	=48	=48	=48	=48	=48	=48	=48	=48	=48	=48	=48	=48	=48	=48	=48	=48	=48	=48	=48	=48	=48	=48	=48	=48	=48	=48	=48	=48	=48	=48	=48
!	!	!	!	!	!	!	!	!	!	!	!	!	!	!	!	!	!	!	!	!	!	!	!	!	!	!LO:TX:a:t=1.	!	!	!	!	!	!	!	!	!	!	!
2.BB-/_	.	2.BB-/_	.	2.d 2.A-/]	.	4cc\	.	4ee-\	.	1.r	.	.	1.r	.	.	1.r	.	.	1.r	.	.	2.r	.	2.r	.	2.r	.	2.r	.	2.r	.	2.r	.	2.r	.	.	.
.	.	.	.	.	.	4b-\	.	4dd\	.	.	.	.	.	.	.	.	.	.	.	.	.	.	.	.	.	.	.	.	.	.	.	.	.	.	.	.	.
.	.	.	.	.	.	4a-X\)	.	4cc\)	.	.	.	.	.	.	.	.	.	.	.	.	.	.	.	.	.	.	.	.	.	.	.	.	.	.	.	.	.
!	!	!	!	!	!	!	!	!	!	!	!	!	!	!	!	!	!	!	!	!	!	!	!	!LO:LB:g=original	!	!	!	!	!	!	!	!	!	!	!	!	!
=49	=49	=49	=49	=49	=49	=49	=49	=49	=49	=49	=49	=49	=49	=49	=49	=49	=49	=49	=49	=49	=49	=49	=49	=49	=49	=49	=49	=49	=49	=49	=49	=49	=49	=49	=49	=49	=49
!	!	!	!	!	!	!	!	!	!	!	!	!	!	!	!	!	!	!	!	!	!	!	!LO:DY:rj	!	!LO:DY:rj	!	!LO:DY:rj	!	!LO:DY:rj	!	!LO:DY:rj	!	!LO:DY:rj	!	!LO:DY:rj	!	!
2.BB-/_	6	2.BB-/_	.	2.d [2.A-X/	.	(4g/	.	(4b-/	.	.	.	.	.	.	.	.	.	.	.	.	.	[2.BB-/	pp	[2.B-/	pp	[2.b-\	pp	[2.F\	pp	[2.A-X\	pp	[2.f/	p	[2.a-X/	pp	.	.
.	7_	.	.	.	.	4f/	.	4a-X/	.	.	.	.	.	.	.	.	.	.	.	.	.	.	.	.	.	.	.	.	.	.	.	.	.	.	.	.	.
.	.	.	.	.	.	4e-/	.	4g/	.	.	.	.	.	.	.	.	.	.	.	.	.	.	.	.	.	.	.	.	.	.	.	.	.	.	.	.	.
=50	=50	=50	=50	=50	=50	=50	=50	=50	=50	=50	=50	=50	=50	=50	=50	=50	=50	=50	=50	=50	=50	=50	=50	=50	=50	=50	=50	=50	=50	=50	=50	=50	=50	=50	=50	=50	=50
!	!	!	!	!	!	!	!	!	!	!	!	!	!	!	!	!	!	!	!	!	!	!LO:TX:t=P:problem:nuta połączona ligaturą z kolejną częścią	!	!LO:TX:t=P:problem:nuta połączona ligaturą z kolejną częścią	!	!LO:TX:t=P:problem:nuta połączona ligaturą z kolejną częścią	!	!LO:TX:t=P:problem:nuta połączona łukiem z kolejną częścią	!	!LO:TX:t=P:problem:nuta połączona łukiem z kolejną częścią	!	!LO:TX:t=P:problem:nuta połączona łukiem z kolejną częścią	!	!LO:TX:t=P:problem:nuta połączona łukiem z kolejną częścią	!	!	!
2.BB-/]	.	2.BB-/]	.	2.d 2.A-/]	.	4d/	.	4f/	.	2.r	.	.	2.r	.	.	2.r	.	.	2.r	.	.	2.BB-/]	.	2.B-/]	.	2.b-\]	.	(2.F\]	.	(2.A-\]	.	(2.f/]	.	2.a-/]	.	2.r	.
.	.	.	.	.	.	4B-/	.	4e-/	.	.	.	.	.	.	.	.	.	.	.	.	.	.	.	.	.	.	.	.	.	.	.	.	.	.	.	.	.
.	x	.	.	.	.	4A-X/)	.	4d/)	.	.	.	.	.	.	.	.	.	.	.	.	.	.	.	.	.	.	.	.	.	.	.	.	.	.	.	.	.
==	==	==	==	==	==	==	==	==	==	==	==	==	==	==	==	==	==	==	==	==	==	==	==	==	==	==	==	==	==	==	==	==	==	==	==	==	==
*-	*-	*-	*-	*-	*-	*-	*-	*-	*-	*-	*-	*-	*-	*-	*-	*-	*-	*-	*-	*-	*-	*-	*-	*-	*-	*-	*-	*-	*-	*-	*-	*-	*-	*-	*-	*-	*-
!!!system-decoration: [(g1)][(g2)]<s8>[(g3)][(g4)]{s16,s17}
!!!RDF**kern: > = above
!!!RDF**kern: < = below
!!!RDF**kern: | = vertical stroke
!!!ENC: Tomasz Grochalski
!!!END: 2020-10-14
!!!ENC: Andrzej Kubiczek
!!!END: 2022-01-22
